;FLAVOR:Marlin
;TIME:11766
;Filament used: 9.40173m
;Layer height: 0.2
;MINX:43.51
;MINY:43.51
;MINZ:0.2
;MAXX:191.49
;MAXY:191.49
;MAXZ:3
;Generated with Cura_SteamEngine 4.9.1
M140 S50
M105
M190 S50
M104 S200
M105
M109 S200
M82 ;absolute extrusion mode
; Ender 3 Custom Start G-code
G92 E0 ; Reset Extruder
G28 ; Home all axes
G1 Z2.0 F3000 ; Move Z Axis up little to prevent scratching of Heat Bed
G1 X0.1 Y20 Z0.3 F5000.0 ; Move to start position
G1 X0.1 Y200.0 Z0.3 F1500.0 E15 ; Draw the first line
G1 X0.4 Y200.0 Z0.3 F5000.0 ; Move to side a little
G1 X0.4 Y20 Z0.3 F1500.0 E30 ; Draw the second line
G92 E0 ; Reset Extruder
G1 Z2.0 F3000 ; Move Z Axis up little to prevent scratching of Heat Bed
G1 X5 Y20 Z0.3 F5000.0 ; Move over to prevent blob squish
G92 E0
G92 E0
G1 F2700 E-5
;LAYER_COUNT:15
;LAYER:0
M107
G0 F6000 X64.964 Y65.406 Z0.2
;TYPE:SKIRT
G1 F2700 E0
G1 F1200 X65.888 Y64.531 E0.04233
G1 X66.483 Y64.031 E0.06817
G1 X75.094 Y56.965 E0.43866
G1 X75.654 Y56.519 E0.46247
G1 X76.412 Y55.967 E0.49366
G1 X77.175 Y55.502 E0.52338
G1 X77.794 Y55.159 E0.54692
G1 X87.592 Y49.922 E0.91643
G1 X88.365 Y49.523 E0.94536
G1 X89.216 Y49.13 E0.97654
G1 X89.762 Y48.923 E0.99596
G1 X90.106 Y48.807 E1.00803
G1 X90.801 Y48.586 E1.03229
G1 X101.525 Y45.335 E1.405
G1 X102.184 Y45.146 E1.4278
G1 X103.096 Y44.926 E1.45901
G1 X103.987 Y44.789 E1.48899
G1 X104.831 Y44.695 E1.51723
G1 X115.896 Y43.606 E1.88704
G1 X116.591 Y43.548 E1.91023
G1 X117.528 Y43.51 E1.94142
G1 X118.433 Y43.549 E1.97155
G1 X119.234 Y43.618 E1.99829
G1 X130.321 Y44.711 E2.36883
G1 X131.022 Y44.79 E2.3923
G1 X131.949 Y44.935 E2.4235
G1 X132.819 Y45.146 E2.45328
G1 X133.437 Y45.323 E2.47466
G1 X144.28 Y48.612 E2.85153
G1 X144.926 Y48.817 E2.87407
G1 X145.807 Y49.139 E2.90527
G1 X146.643 Y49.527 E2.93592
G1 X147.407 Y49.922 E2.96453
G1 X157.033 Y55.066 E3.32753
G1 X157.849 Y55.518 E3.35856
G1 X158.649 Y56.007 E3.38975
G1 X159.373 Y56.539 E3.41963
G1 X159.994 Y57.036 E3.44608
G1 X168.491 Y64.01 E3.8117
G1 X169.151 Y64.567 E3.84042
G1 X169.841 Y65.202 E3.87161
G1 X170.462 Y65.88 E3.90219
G1 X170.969 Y66.483 E3.92839
G1 X178.035 Y75.094 E4.29888
G1 X178.481 Y75.654 E4.32269
G1 X179.033 Y76.412 E4.35388
G1 X179.498 Y77.175 E4.38359
G1 X179.841 Y77.794 E4.40713
G1 X185.161 Y87.749 E4.78255
G1 X185.476 Y88.362 E4.80547
G1 X185.869 Y89.214 E4.83668
G1 X186.062 Y89.719 E4.85466
G1 X186.191 Y90.101 E4.86807
G1 X186.414 Y90.8 E4.89248
G1 X189.618 Y101.365 E5.25967
G1 X189.855 Y102.189 E5.28819
G1 X190.074 Y103.101 E5.31939
G1 X190.211 Y103.987 E5.3492
G1 X190.305 Y104.831 E5.37745
G1 X191.393 Y115.888 E5.74698
G1 X191.451 Y116.577 E5.76998
G1 X191.49 Y117.514 E5.80117
G1 X191.452 Y118.419 E5.8313
G1 X191.382 Y119.234 E5.85851
G1 X190.289 Y130.319 E6.22898
G1 X190.21 Y131.021 E6.25248
G1 X190.065 Y131.948 E6.28369
G1 X189.853 Y132.824 E6.31366
G1 X189.676 Y133.441 E6.33501
G1 X186.388 Y144.28 E6.71174
G1 X186.183 Y144.926 E6.73428
G1 X185.861 Y145.807 E6.76548
G1 X185.473 Y146.643 E6.79613
G1 X185.078 Y147.407 E6.82474
G1 X179.847 Y157.194 E7.19384
G1 X179.48 Y157.854 E7.21895
G1 X178.989 Y158.653 E7.25014
G1 X178.461 Y159.373 E7.27984
G1 X177.964 Y159.994 E7.3063
G1 X170.895 Y168.605 E7.67684
G1 X170.442 Y169.142 E7.70021
G1 X169.807 Y169.832 E7.7314
G1 X169.113 Y170.469 E7.76273
G1 X168.517 Y170.969 E7.78861
G1 X160.032 Y177.933 E8.1537
G1 X159.353 Y178.475 E8.1826
G1 X158.596 Y179.028 E8.21378
G1 X157.813 Y179.504 E8.24425
G1 X157.06 Y179.919 E8.27285
G1 X147.249 Y185.162 E8.64284
G1 X146.636 Y185.477 E8.66576
G1 X145.784 Y185.87 E8.69697
G1 X145.238 Y186.077 E8.71639
G1 X144.894 Y186.193 E8.72846
G1 X144.199 Y186.414 E8.75272
G1 X133.475 Y189.665 E9.12543
G1 X132.816 Y189.854 E9.14823
G1 X131.904 Y190.074 E9.17944
G1 X131.013 Y190.211 E9.20942
G1 X130.169 Y190.305 E9.23767
G1 X119.106 Y191.394 E9.6074
G1 X118.413 Y191.452 E9.63053
G1 X117.476 Y191.49 E9.66172
G1 X116.571 Y191.451 E9.69185
G1 X115.766 Y191.382 E9.71872
G1 X104.682 Y190.289 E10.08917
G1 X103.98 Y190.21 E10.11266
G1 X103.053 Y190.065 E10.14387
G1 X102.181 Y189.854 E10.17371
G1 X101.563 Y189.677 E10.19509
G1 X90.72 Y186.388 E10.57196
G1 X90.074 Y186.183 E10.5945
G1 X89.193 Y185.861 E10.6257
G1 X88.357 Y185.473 E10.65635
G1 X87.593 Y185.078 E10.68496
G1 X77.967 Y179.934 E11.04796
G1 X77.151 Y179.482 E11.07899
G1 X76.351 Y178.993 E11.11018
G1 X75.627 Y178.461 E11.14006
G1 X75.006 Y177.964 E11.16651
G1 X66.383 Y170.885 E11.53758
G1 X65.844 Y170.429 E11.56106
G1 X65.155 Y169.793 E11.59225
G1 X64.534 Y169.115 E11.62283
G1 X64.031 Y168.517 E11.64882
G1 X56.965 Y159.906 E12.01931
G1 X56.519 Y159.346 E12.04312
G1 X55.967 Y158.588 E12.0743
G1 X55.502 Y157.825 E12.10402
G1 X55.159 Y157.206 E12.12756
G1 X49.921 Y147.407 E12.49712
G1 X49.519 Y146.627 E12.5263
G1 X49.127 Y145.775 E12.5575
G1 X48.926 Y145.248 E12.57626
G1 X48.807 Y144.894 E12.58868
G1 X48.586 Y144.199 E12.61293
G1 X45.335 Y133.475 E12.98565
G1 X45.146 Y132.816 E13.00845
G1 X44.926 Y131.904 E13.03965
G1 X44.789 Y131.013 E13.06963
G1 X44.695 Y130.169 E13.09788
G1 X43.606 Y119.104 E13.46768
G1 X43.548 Y118.409 E13.49088
G1 X43.51 Y117.472 E13.52207
G1 X43.549 Y116.567 E13.5522
G1 X43.618 Y115.766 E13.57894
G1 X44.709 Y104.695 E13.94894
G1 X44.786 Y104.003 E13.9721
G1 X44.93 Y103.076 E14.0033
G1 X45.142 Y102.199 E14.03331
G1 X45.372 Y101.398 E14.06103
G1 X48.609 Y90.731 E14.43179
G1 X48.814 Y90.083 E14.4544
G1 X49.135 Y89.202 E14.48558
G1 X49.527 Y88.357 E14.51656
G1 X49.922 Y87.593 E14.54517
G1 X55.153 Y77.806 E14.91427
G1 X55.52 Y77.146 E14.93938
G1 X56.011 Y76.347 E14.97058
G1 X56.539 Y75.627 E15.00027
G1 X57.036 Y75.006 E15.02673
G1 X64.102 Y66.399 E15.39711
G1 X64.531 Y65.89 E15.41925
G1 X64.964 Y65.406 E15.44085
G0 F6000 X65.255 Y65.68
G1 F1200 X66.146 Y64.837 E15.48165
G1 X66.737 Y64.34 E15.50733
G1 X75.343 Y57.278 E15.8776
G1 X75.903 Y56.832 E15.90141
G1 X76.648 Y56.291 E15.93204
G1 X77.369 Y55.852 E15.96011
G1 X78.13 Y55.432 E15.98902
G1 X87.781 Y50.274 E16.35298
G1 X88.548 Y49.879 E16.38168
G1 X89.384 Y49.494 E16.41229
G1 X89.897 Y49.3 E16.43053
G1 X90.228 Y49.188 E16.44215
G1 X90.917 Y48.969 E16.4662
G1 X101.482 Y45.765 E16.8334
G1 X102.295 Y45.531 E16.86154
G1 X103.19 Y45.316 E16.89215
G1 X104.031 Y45.187 E16.92045
G1 X104.871 Y45.093 E16.94856
G1 X115.772 Y44.019 E17.31289
G1 X116.624 Y43.947 E17.34132
G1 X117.544 Y43.91 E17.37195
G1 X118.4 Y43.948 E17.40045
G1 X119.195 Y44.016 E17.42699
G1 X130.276 Y45.109 E17.79733
G1 X130.977 Y45.188 E17.82079
G1 X131.887 Y45.33 E17.85143
G1 X132.709 Y45.531 E17.87957
G1 X133.485 Y45.754 E17.90643
G1 X144.03 Y48.953 E18.27294
G1 X144.805 Y49.199 E18.29998
G1 X145.67 Y49.515 E18.33061
G1 X146.46 Y49.882 E18.35958
G1 X147.219 Y50.275 E18.38801
G1 X156.996 Y55.501 E18.75674
G1 X157.655 Y55.867 E18.78181
G1 X158.439 Y56.349 E18.81242
G1 X159.124 Y56.852 E18.84068
G1 X159.74 Y57.345 E18.86692
G1 X168.356 Y64.418 E19.23769
G1 X168.893 Y64.872 E19.26107
G1 X169.569 Y65.497 E19.2917
G1 X170.156 Y66.138 E19.3206
G1 X170.66 Y66.737 E19.34664
G1 X177.722 Y75.343 E19.71691
G1 X178.168 Y75.903 E19.74072
G1 X178.709 Y76.648 E19.77135
G1 X179.148 Y77.369 E19.79942
G1 X179.568 Y78.13 E19.82833
G1 X184.726 Y87.781 E20.1923
G1 X185.12 Y88.545 E20.22089
G1 X185.663 Y89.794 E20.26618
G1 X185.81 Y90.222 E20.28124
G1 X186.031 Y90.916 E20.30546
G1 X189.235 Y101.481 E20.67266
G1 X189.47 Y102.299 E20.70096
G1 X189.685 Y103.194 E20.73158
G1 X189.813 Y104.031 E20.75974
G1 X189.907 Y104.871 E20.78785
G1 X190.995 Y115.922 E21.15719
G1 X191.053 Y116.611 E21.18019
G1 X191.09 Y117.531 E21.21081
G1 X191.053 Y118.386 E21.23927
G1 X190.984 Y119.195 E21.26628
G1 X189.892 Y130.274 E21.63655
G1 X189.813 Y130.976 E21.66005
G1 X189.67 Y131.886 E21.69069
G1 X189.468 Y132.714 E21.71904
G1 X189.246 Y133.485 E21.74572
G1 X186.047 Y144.03 E22.11223
G1 X185.801 Y144.805 E22.13928
G1 X185.485 Y145.67 E22.16991
G1 X185.118 Y146.46 E22.19888
G1 X184.725 Y147.219 E22.22731
G1 X179.582 Y156.844 E22.59027
G1 X179.13 Y157.659 E22.62127
G1 X178.648 Y158.444 E22.65191
G1 X178.148 Y159.124 E22.67998
G1 X177.655 Y159.74 E22.70622
G1 X170.589 Y168.347 E23.0766
G1 X170.136 Y168.884 E23.09997
G1 X169.513 Y169.561 E23.13057
G1 X168.855 Y170.163 E23.16023
G1 X168.263 Y170.66 E23.18594
G1 X159.778 Y177.624 E23.55103
G1 X159.104 Y178.162 E23.57972
G1 X158.36 Y178.705 E23.61035
G1 X157.62 Y179.154 E23.63914
G1 X156.871 Y179.566 E23.66757
G1 X147.066 Y184.806 E24.03734
G1 X146.453 Y185.121 E24.06026
G1 X145.616 Y185.506 E24.0909
G1 X145.103 Y185.7 E24.10915
G1 X144.772 Y185.812 E24.12077
G1 X144.083 Y186.031 E24.14481
G1 X133.518 Y189.235 E24.51201
G1 X132.705 Y189.469 E24.54015
G1 X131.81 Y189.684 E24.57076
G1 X130.969 Y189.813 E24.59906
G1 X130.129 Y189.907 E24.62718
G1 X119.073 Y190.995 E24.99668
G1 X118.38 Y191.053 E25.01981
G1 X117.46 Y191.09 E25.05043
G1 X116.605 Y191.052 E25.0789
G1 X115.805 Y190.984 E25.1056
G1 X104.727 Y189.892 E25.47584
G1 X104.025 Y189.813 E25.49934
G1 X103.115 Y189.67 E25.52998
G1 X102.291 Y189.469 E25.55819
G1 X101.515 Y189.246 E25.58504
G1 X90.97 Y186.047 E25.95155
G1 X90.195 Y185.801 E25.9786
G1 X89.33 Y185.485 E26.00923
G1 X88.54 Y185.118 E26.0382
G1 X87.781 Y184.725 E26.06663
G1 X78.004 Y179.499 E26.43535
G1 X77.345 Y179.133 E26.46042
G1 X76.561 Y178.651 E26.49103
G1 X75.876 Y178.148 E26.5193
G1 X75.26 Y177.655 E26.54554
G1 X66.763 Y170.681 E26.91115
G1 X66.103 Y170.123 E26.9399
G1 X65.426 Y169.499 E26.97052
G1 X64.84 Y168.857 E26.99943
G1 X64.34 Y168.263 E27.02526
G1 X57.278 Y159.657 E27.39553
G1 X56.832 Y159.097 E27.41934
G1 X56.291 Y158.352 E27.44996
G1 X55.852 Y157.631 E27.47804
G1 X55.509 Y157.012 E27.50157
G1 X50.274 Y147.219 E27.87091
G1 X49.875 Y146.444 E27.8999
G1 X49.49 Y145.608 E27.93051
G1 X49.284 Y145.059 E27.95002
G1 X49.188 Y144.772 E27.96008
G1 X48.969 Y144.083 E27.98413
G1 X45.765 Y133.518 E28.35133
G1 X45.531 Y132.705 E28.37946
G1 X45.316 Y131.81 E28.41008
G1 X45.187 Y130.969 E28.43838
G1 X45.093 Y130.129 E28.46649
G1 X44.019 Y119.228 E28.83081
G1 X43.947 Y118.376 E28.85925
G1 X43.91 Y117.456 E28.88988
G1 X43.948 Y116.6 E28.91838
G1 X44.016 Y115.805 E28.94491
G1 X45.107 Y104.739 E29.31475
G1 X45.184 Y104.047 E29.33791
G1 X45.325 Y103.137 E29.36854
G1 X45.526 Y102.309 E29.39688
G1 X45.705 Y101.682 E29.41857
G1 X48.954 Y90.971 E29.79085
G1 X49.196 Y90.204 E29.8176
G1 X49.511 Y89.339 E29.84821
G1 X49.882 Y88.54 E29.87751
G1 X50.275 Y87.781 E29.90594
G1 X55.418 Y78.156 E30.26891
G1 X55.87 Y77.341 E30.2999
G1 X56.352 Y76.556 E30.33054
G1 X56.852 Y75.876 E30.35861
G1 X57.345 Y75.26 E30.38486
G1 X64.319 Y66.763 E30.75047
G1 X64.837 Y66.148 E30.77721
G1 X65.255 Y65.68 E30.79808
G0 F6000 X65.546 Y65.954
G1 F1200 X66.403 Y65.143 E30.83733
G1 X66.991 Y64.65 E30.86285
G1 X75.593 Y57.591 E31.23295
G1 X76.153 Y57.145 E31.25677
G1 X76.883 Y56.614 E31.28679
G1 X77.563 Y56.202 E31.31323
G1 X78.318 Y55.785 E31.34192
G1 X87.969 Y50.627 E31.70588
G1 X88.73 Y50.235 E31.73435
G1 X89.972 Y49.698 E31.77936
G1 X90.349 Y49.569 E31.79261
G1 X91.033 Y49.352 E31.81648
G1 X101.746 Y46.104 E32.18881
G1 X102.405 Y45.915 E32.21161
G1 X103.283 Y45.705 E32.24164
G1 X104.076 Y45.584 E32.26832
G1 X104.91 Y45.491 E32.29623
G1 X115.963 Y44.403 E32.66563
G1 X116.658 Y44.345 E32.68883
G1 X117.56 Y44.31 E32.71885
G1 X118.366 Y44.346 E32.74569
G1 X119.156 Y44.414 E32.77206
G1 X130.231 Y45.506 E33.1422
G1 X130.932 Y45.585 E33.16566
G1 X131.824 Y45.726 E33.1957
G1 X132.598 Y45.915 E33.2222
G1 X133.369 Y46.137 E33.24888
G1 X144.038 Y49.375 E33.61972
G1 X144.684 Y49.58 E33.64226
G1 X145.532 Y49.891 E33.6723
G1 X146.276 Y50.238 E33.69961
G1 X147.03 Y50.628 E33.72784
G1 X156.801 Y55.851 E34.09634
G1 X157.46 Y56.217 E34.12142
G1 X158.23 Y56.69 E34.15147
G1 X158.874 Y57.165 E34.17809
G1 X159.486 Y57.655 E34.20416
G1 X168.097 Y64.724 E34.57471
G1 X168.634 Y65.178 E34.5981
G1 X169.298 Y65.791 E34.62816
G1 X169.85 Y66.395 E34.65537
G1 X170.35 Y66.991 E34.68125
G1 X177.409 Y75.593 E35.05135
G1 X177.855 Y76.153 E35.07516
G1 X178.386 Y76.883 E35.10519
G1 X178.798 Y77.563 E35.13163
G1 X179.215 Y78.318 E35.16032
G1 X184.373 Y87.969 E35.52428
G1 X184.764 Y88.728 E35.55268
G1 X185.287 Y89.929 E35.59625
G1 X185.429 Y90.344 E35.61084
G1 X185.648 Y91.032 E35.63485
G1 X188.897 Y101.749 E36.00732
G1 X189.086 Y102.409 E36.03015
G1 X189.296 Y103.287 E36.06018
G1 X189.416 Y104.076 E36.08672
G1 X189.509 Y104.91 E36.11463
G1 X190.596 Y115.955 E36.48377
G1 X190.654 Y116.644 E36.50676
G1 X190.69 Y117.547 E36.53682
G1 X190.654 Y118.352 E36.56362
G1 X190.586 Y119.156 E36.59046
G1 X189.494 Y130.23 E36.96057
G1 X189.415 Y130.932 E36.98406
G1 X189.274 Y131.824 E37.0141
G1 X189.084 Y132.604 E37.0408
G1 X188.863 Y133.369 E37.06729
G1 X185.625 Y144.038 E37.43812
G1 X185.42 Y144.684 E37.46066
G1 X185.109 Y145.532 E37.49071
G1 X184.762 Y146.276 E37.51801
G1 X184.372 Y147.03 E37.54624
G1 X179.229 Y156.655 E37.90921
G1 X178.78 Y157.465 E37.94001
G1 X178.307 Y158.234 E37.97004
G1 X177.835 Y158.874 E37.99649
G1 X177.345 Y159.486 E38.02256
G1 X170.283 Y168.089 E38.39276
G1 X169.83 Y168.626 E38.41613
G1 X169.218 Y169.29 E38.44616
G1 X168.598 Y169.856 E38.47408
G1 X168.009 Y170.35 E38.49965
G1 X159.413 Y177.405 E38.86952
G1 X158.855 Y177.85 E38.89326
G1 X158.124 Y178.381 E38.92331
G1 X157.427 Y178.804 E38.95042
G1 X156.806 Y179.147 E38.97402
G1 X147.03 Y184.373 E39.34272
G1 X146.27 Y184.765 E39.37116
G1 X145.028 Y185.302 E39.41616
G1 X144.651 Y185.431 E39.42942
G1 X143.967 Y185.648 E39.45328
G1 X133.254 Y188.896 E39.82561
G1 X132.595 Y189.085 E39.84842
G1 X131.717 Y189.295 E39.87844
G1 X130.924 Y189.416 E39.90512
G1 X130.09 Y189.509 E39.93303
G1 X119.189 Y190.583 E40.29736
G1 X118.347 Y190.654 E40.32546
G1 X117.444 Y190.69 E40.35552
G1 X116.639 Y190.654 E40.38232
G1 X115.844 Y190.586 E40.40886
G1 X104.771 Y189.494 E40.77894
G1 X104.069 Y189.415 E40.80243
G1 X103.177 Y189.274 E40.83247
G1 X102.402 Y189.085 E40.859
G1 X101.631 Y188.863 E40.88569
G1 X90.962 Y185.625 E41.25652
G1 X90.316 Y185.42 E41.27906
G1 X89.468 Y185.109 E41.3091
G1 X88.724 Y184.762 E41.33641
G1 X87.97 Y184.372 E41.36464
G1 X78.199 Y179.149 E41.73314
G1 X77.54 Y178.783 E41.75822
G1 X76.77 Y178.31 E41.78827
G1 X76.126 Y177.835 E41.81489
G1 X75.514 Y177.345 E41.84096
G1 X66.9 Y170.274 E42.21163
G1 X66.361 Y169.818 E42.23511
G1 X65.698 Y169.205 E42.26515
G1 X65.146 Y168.6 E42.29239
G1 X64.65 Y168.009 E42.31805
G1 X57.591 Y159.407 E42.68815
G1 X57.145 Y158.847 E42.71197
G1 X56.614 Y158.117 E42.74199
G1 X56.202 Y157.437 E42.76843
G1 X55.785 Y156.682 E42.79712
G1 X50.546 Y146.878 E43.16684
G1 X50.23 Y146.262 E43.18987
G1 X49.854 Y145.441 E43.2199
G1 X49.661 Y144.926 E43.23819
G1 X49.569 Y144.651 E43.24784
G1 X49.352 Y143.967 E43.27171
G1 X46.104 Y133.254 E43.64404
G1 X45.915 Y132.595 E43.66684
G1 X45.705 Y131.717 E43.69687
G1 X45.584 Y130.924 E43.72355
G1 X45.491 Y130.09 E43.75146
G1 X44.403 Y119.037 E44.12086
G1 X44.345 Y118.342 E44.14405
G1 X44.31 Y117.44 E44.17408
G1 X44.346 Y116.634 E44.20091
G1 X44.414 Y115.844 E44.22728
G1 X45.505 Y104.783 E44.59696
G1 X45.582 Y104.091 E44.62012
G1 X45.721 Y103.199 E44.65014
G1 X45.911 Y102.419 E44.67685
G1 X46.137 Y101.63 E44.70414
G1 X49.372 Y90.972 E45.0746
G1 X49.577 Y90.324 E45.0972
G1 X49.887 Y89.476 E45.12723
G1 X50.238 Y88.724 E45.15484
G1 X50.628 Y87.97 E45.18307
G1 X55.771 Y78.345 E45.54604
G1 X56.22 Y77.535 E45.57684
G1 X56.693 Y76.766 E45.60687
G1 X57.165 Y76.126 E45.63332
G1 X57.655 Y75.514 E45.65939
G1 X64.714 Y66.915 E46.02942
G1 X65.143 Y66.406 E46.05156
G1 X65.546 Y65.954 E46.0717
G1 F2700 E41.0717
;MESH:sorry.stl
G0 F6000 X115.165 Y74.673
G0 X113.73 Y74.673
G0 X113.9 Y76.6
;TYPE:WALL-INNER
G1 F2700 E46.0717
G1 F1200 X141.1 Y76.6 E46.97638
G1 X141.1 Y68.4 E47.24911
G1 X113.9 Y68.4 E48.15379
G1 X113.9 Y76.6 E48.42652
G0 F6000 X114.3 Y76.2
;TYPE:WALL-OUTER
G1 F1200 X140.7 Y76.2 E49.30459
G1 X140.7 Y68.8 E49.55071
G1 X114.3 Y68.8 E50.42878
G1 X114.3 Y76.2 E50.6749
G1 F2700 E45.6749
G0 F6000 X114 Y76.2
G0 X116.9 Y76.79
G0 X116.9 Y75.335
G0 X118.153 Y105.153
G0 X116.9 Y103.71
G0 X116.9 Y131.1
;TYPE:WALL-INNER
G1 F2700 E50.6749
G1 F1200 X133.1 Y131.1 E51.21372
