;FLAVOR:Marlin
;TIME:13291
;Filament used: 8.77403m
;Layer height: 0.2
;MINX:44.503
;MINY:44.503
;MINZ:0.2
;MAXX:190.497
;MAXY:190.497
;MAXZ:8.4
;Generated with Cura_SteamEngine 4.12.1
M140 S50
M105
M190 S50
M104 S200
M105
M109 S200
M82 ;absolute extrusion mode
; Ender 3 Custom Start G-code
G92 E0 ; Reset Extruder
G28 ; Home all axes
G1 Z2.0 F3000 ; Move Z Axis up little to prevent scratching of Heat Bed
G1 X0.1 Y20 Z0.3 F5000.0 ; Move to start position
G1 X0.1 Y200.0 Z0.3 F1500.0 E15 ; Draw the first line
G1 X0.4 Y200.0 Z0.3 F5000.0 ; Move to side a little
G1 X0.4 Y20 Z0.3 F1500.0 E30 ; Draw the second line
G92 E0 ; Reset Extruder
G1 Z2.0 F3000 ; Move Z Axis up little to prevent scratching of Heat Bed
G1 X5 Y20 Z0.3 F5000.0 ; Move over to prevent blob squish
G92 E0
G92 E0
G1 F2700 E-5
;LAYER_COUNT:42
;LAYER:0
M107
G0 F6000 X65.603 Y66.164 Z0.2
;TYPE:SKIRT
G1 F2700 E0
G1 F1200 X66.404 Y65.366 E0.03761
G1 X66.558 Y65.216 E0.04476
G1 X67.461 Y64.353 E0.0863
G1 X68.324 Y63.552 E0.12546
G1 X69.174 Y62.789 E0.16345
G1 X70.034 Y62.041 E0.20136
G1 X70.969 Y61.256 E0.24197
G1 X71.964 Y60.446 E0.28464
G1 X72.279 Y60.195 E0.29804
G1 X73.082 Y59.571 E0.33186
G1 X74.113 Y58.797 E0.37474
G1 X74.262 Y58.687 E0.3809
G1 X75.323 Y57.921 E0.42442
G1 X76.25 Y57.275 E0.462
G1 X77.218 Y56.623 E0.50082
G1 X78.168 Y56.004 E0.53854
G1 X78.35 Y55.888 E0.54571
G1 X79.42 Y55.224 E0.5876
G1 X80.389 Y54.64 E0.62523
G1 X81.598 Y53.942 E0.67166
G1 X82.606 Y53.384 E0.70998
G1 X82.931 Y53.209 E0.72226
G1 X84.023 Y52.633 E0.76332
G1 X85.167 Y52.055 E0.80595
G1 X86.026 Y51.637 E0.83772
G1 X86.333 Y51.492 E0.84902
G1 X87.438 Y50.98 E0.88952
G1 X88.549 Y50.489 E0.92992
G1 X89.477 Y50.095 E0.96345
G1 X89.801 Y49.962 E0.9751
G1 X90.865 Y49.535 E1.01324
G1 X91.986 Y49.106 E1.05316
G1 X92.178 Y49.035 E1.05997
G1 X93.372 Y48.606 E1.10216
G1 X94.403 Y48.254 E1.1384
G1 X95.584 Y47.871 E1.17969
G1 X96.705 Y47.528 E1.21868
G1 X97.846 Y47.199 E1.25818
G1 X99.081 Y46.866 E1.30072
G1 X99.607 Y46.73 E1.31879
G1 X100.283 Y46.562 E1.34196
G1 X100.623 Y46.481 E1.35359
G1 X101.631 Y46.248 E1.388
G1 X101.983 Y46.171 E1.39998
G1 X102.983 Y45.96 E1.43397
G1 X103.187 Y45.919 E1.44089
G1 X104.399 Y45.688 E1.48193
G1 X105.507 Y45.494 E1.51934
G1 X106.677 Y45.309 E1.55874
G1 X107.02 Y45.259 E1.57027
G1 X107.996 Y45.124 E1.60304
G1 X108.199 Y45.098 E1.60985
G1 X109.511 Y44.942 E1.65379
G1 X110.395 Y44.85 E1.68335
G1 X110.825 Y44.809 E1.69772
G1 X112.002 Y44.711 E1.737
G1 X113.295 Y44.625 E1.7801
G1 X114.256 Y44.575 E1.81211
G1 X114.69 Y44.558 E1.82655
G1 X115.421 Y44.533 E1.85088
G1 X115.937 Y44.52 E1.86805
G1 X116.718 Y44.506 E1.89403
G1 X117.19 Y44.503 E1.90973
G1 X118.413 Y44.508 E1.95041
G1 X119.365 Y44.526 E1.98208
G1 X119.764 Y44.537 E1.99535
G1 X120.546 Y44.566 E2.02138
G1 X121.008 Y44.587 E2.03676
G1 X122.193 Y44.654 E2.07624
G1 X123.266 Y44.731 E2.11202
G1 X124.594 Y44.848 E2.15636
G1 X125.645 Y44.958 E2.19151
G1 X126.065 Y45.007 E2.20557
G1 X126.941 Y45.116 E2.23493
G1 X127.309 Y45.165 E2.24728
G1 X128.256 Y45.299 E2.27909
G1 X128.615 Y45.354 E2.29117
G1 X129.431 Y45.484 E2.31865
G1 X129.898 Y45.563 E2.3344
G1 X130.708 Y45.708 E2.36177
G1 X131.073 Y45.776 E2.37412
G1 X131.867 Y45.93 E2.40102
G1 X133.283 Y46.229 E2.44916
G1 X133.632 Y46.307 E2.46105
G1 X134.428 Y46.492 E2.48823
G1 X134.873 Y46.6 E2.50346
G1 X135.656 Y46.797 E2.53032
G1 X136.083 Y46.907 E2.54498
G1 X137.007 Y47.157 E2.57682
G1 X138.151 Y47.485 E2.6164
G1 X138.555 Y47.604 E2.63041
G1 X139.375 Y47.858 E2.65896
G1 X139.823 Y48 E2.67459
G1 X140.888 Y48.351 E2.71189
G1 X141.924 Y48.71 E2.74836
G1 X142.976 Y49.093 E2.78559
G1 X143.341 Y49.23 E2.79856
G1 X144.267 Y49.587 E2.83157
G1 X145.556 Y50.11 E2.87784
G1 X146.453 Y50.49 E2.91024
G1 X147.761 Y51.071 E2.95784
G1 X147.935 Y51.15 E2.9642
G1 X148.917 Y51.609 E3.00025
G1 X149.191 Y51.741 E3.01036
G1 X150.03 Y52.152 E3.04144
G1 X150.322 Y52.299 E3.05231
G1 X151.213 Y52.755 E3.0856
G1 X152.259 Y53.31 E3.12499
G1 X152.646 Y53.52 E3.13963
G1 X153.466 Y53.977 E3.17085
G1 X154.441 Y54.54 E3.2083
G1 X154.879 Y54.799 E3.22522
G1 X155.86 Y55.395 E3.2634
G1 X156.715 Y55.931 E3.29697
G1 X157.85 Y56.669 E3.34199
G1 X158.022 Y56.783 E3.34886
G1 X159.091 Y57.51 E3.39186
G1 X159.888 Y58.071 E3.42427
G1 X160.81 Y58.739 E3.46214
G1 X161.826 Y59.502 E3.5044
G1 X162.856 Y60.303 E3.5478
G1 X163.899 Y61.146 E3.5924
G1 X164.162 Y61.364 E3.60377
G1 X164.842 Y61.936 E3.63332
G1 X165.118 Y62.173 E3.64542
G1 X165.865 Y62.824 E3.67838
G1 X166.015 Y62.957 E3.68504
G1 X166.901 Y63.758 E3.72477
G1 X167.709 Y64.512 E3.76153
G1 X168.011 Y64.801 E3.77543
G1 X168.839 Y65.606 E3.81384
G1 X169.732 Y66.505 E3.85599
G1 X170.345 Y67.14 E3.88534
G1 X170.642 Y67.454 E3.89972
G1 X171.417 Y68.288 E3.93758
G1 X172.116 Y69.066 E3.97237
G1 X172.889 Y69.953 E4.0115
G1 X173.012 Y70.096 E4.01778
G1 X173.689 Y70.901 E4.05276
G1 X174.533 Y71.937 E4.0972
G1 X174.768 Y72.232 E4.10975
G1 X175.279 Y72.886 E4.13735
G1 X176.058 Y73.915 E4.18028
G1 X176.174 Y74.071 E4.18675
G1 X176.916 Y75.092 E4.22872
G1 X177.613 Y76.087 E4.26913
G1 X177.778 Y76.327 E4.27882
G1 X178.338 Y77.159 E4.31217
G1 X179.019 Y78.205 E4.35369
G1 X179.196 Y78.484 E4.36468
G1 X179.67 Y79.244 E4.39447
G1 X179.885 Y79.596 E4.40819
G1 X180.494 Y80.617 E4.44773
G1 X181.121 Y81.708 E4.48958
G1 X181.534 Y82.452 E4.51788
G1 X182.263 Y83.818 E4.56938
G1 X182.349 Y83.984 E4.5756
G1 X182.912 Y85.098 E4.61711
G1 X183.339 Y85.975 E4.64956
G1 X183.491 Y86.294 E4.66131
G1 X183.967 Y87.322 E4.69899
G1 X184.46 Y88.431 E4.73935
G1 X184.924 Y89.526 E4.77891
G1 X185.421 Y90.755 E4.823
G1 X185.49 Y90.929 E4.82923
G1 X185.863 Y91.901 E4.86385
G1 X185.941 Y92.11 E4.87127
G1 X186.379 Y93.328 E4.91432
G1 X186.684 Y94.213 E4.94546
G1 X187.103 Y95.5 E4.99048
G1 X187.477 Y96.721 E5.03295
G1 X187.53 Y96.898 E5.03909
G1 X187.803 Y97.85 E5.07203
G1 X188.125 Y99.044 E5.11317
G1 X188.17 Y99.215 E5.11905
G1 X188.452 Y100.338 E5.15756
G1 X188.707 Y101.431 E5.19489
G1 X188.747 Y101.608 E5.20092
G1 X188.992 Y102.749 E5.23974
G1 X189.033 Y102.948 E5.2465
G1 X189.239 Y104.002 E5.28222
G1 X189.473 Y105.312 E5.32648
G1 X189.529 Y105.647 E5.33777
G1 X189.691 Y106.68 E5.37255
G1 X189.879 Y108.018 E5.41749
G1 X189.907 Y108.227 E5.4245
G1 X190.043 Y109.373 E5.46289
G1 X190.163 Y110.518 E5.50118
G1 X190.258 Y111.585 E5.53681
G1 X190.349 Y112.841 E5.57869
G1 X190.422 Y114.173 E5.62306
G1 X190.44 Y114.607 E5.63751
G1 X190.468 Y115.409 E5.6642
G1 X190.477 Y115.764 E5.67601
G1 X190.495 Y116.768 E5.70941
G1 X190.497 Y117.065 E5.71929
G1 X190.496 Y118.056 E5.75225
G1 X190.476 Y119.266 E5.7925
G1 X190.466 Y119.648 E5.80521
G1 X190.435 Y120.519 E5.83419
G1 X190.416 Y120.941 E5.84824
G1 X190.349 Y122.159 E5.88882
G1 X190.258 Y123.413 E5.93063
G1 X190.163 Y124.482 E5.96633
G1 X190.026 Y125.781 E6.00977
G1 X190.008 Y125.943 E6.0152
G1 X189.905 Y126.79 E6.04357
G1 X189.718 Y128.136 E6.08877
G1 X189.529 Y129.353 E6.12974
G1 X189.496 Y129.551 E6.13641
G1 X189.277 Y130.792 E6.17833
G1 X189.031 Y132.062 E6.22135
G1 X188.748 Y133.395 E6.26667
G1 X188.464 Y134.613 E6.30827
G1 X188.217 Y135.606 E6.34231
G1 X187.879 Y136.876 E6.38602
G1 X187.799 Y137.162 E6.39589
G1 X187.5 Y138.2 E6.43182
G1 X187.135 Y139.398 E6.47348
G1 X187.077 Y139.583 E6.47992
G1 X186.756 Y140.569 E6.51441
G1 X186.644 Y140.901 E6.52607
G1 X186.317 Y141.847 E6.55936
G1 X185.862 Y143.096 E6.60357
G1 X185.794 Y143.278 E6.61003
G1 X185.357 Y144.408 E6.65033
G1 X184.929 Y145.462 E6.68817
G1 X184.46 Y146.568 E6.72812
G1 X183.927 Y147.767 E6.77176
G1 X183.443 Y148.807 E6.80992
G1 X183.297 Y149.113 E6.82119
G1 X182.838 Y150.05 E6.8559
G1 X182.346 Y151.021 E6.8921
G1 X182.249 Y151.208 E6.89911
G1 X181.678 Y152.282 E6.93956
G1 X181.533 Y152.549 E6.94967
G1 X180.947 Y153.601 E6.98972
G1 X180.405 Y154.534 E7.02561
G1 X179.823 Y155.506 E7.06329
G1 X179.616 Y155.844 E7.07647
G1 X179.15 Y156.589 E7.1057
G1 X178.967 Y156.875 E7.11699
G1 X178.383 Y157.774 E7.15265
G1 X177.785 Y158.663 E7.18828
G1 X177.676 Y158.822 E7.1947
G1 X177.041 Y159.731 E7.23158
G1 X176.242 Y160.835 E7.2769
G1 X176.058 Y161.084 E7.2872
G1 X175.279 Y162.113 E7.33013
G1 X174.705 Y162.846 E7.36109
G1 X174.467 Y163.145 E7.3738
G1 X173.81 Y163.954 E7.40846
G1 X173.013 Y164.904 E7.44971
G1 X172.885 Y165.054 E7.45627
G1 X172.224 Y165.812 E7.48972
G1 X171.412 Y166.716 E7.53013
G1 X170.568 Y167.624 E7.57137
G1 X170.318 Y167.887 E7.58343
G1 X169.645 Y168.584 E7.61566
G1 X169.397 Y168.836 E7.62742
G1 X168.596 Y169.634 E7.66503
G1 X167.801 Y170.4 E7.70174
G1 X167.546 Y170.64 E7.71339
G1 X166.676 Y171.448 E7.75288
G1 X165.826 Y172.211 E7.79087
G1 X164.966 Y172.959 E7.82878
G1 X164.031 Y173.744 E7.86939
G1 X163.036 Y174.554 E7.91206
G1 X162.721 Y174.805 E7.92546
G1 X161.918 Y175.429 E7.95928
G1 X160.887 Y176.203 E8.00216
G1 X160.738 Y176.313 E8.00832
G1 X159.677 Y177.079 E8.05184
G1 X158.75 Y177.725 E8.08942
G1 X157.782 Y178.377 E8.12824
G1 X156.832 Y178.996 E8.16595
G1 X156.65 Y179.112 E8.17313
G1 X155.58 Y179.776 E8.21502
G1 X154.611 Y180.36 E8.25265
G1 X153.402 Y181.058 E8.29908
G1 X152.486 Y181.566 E8.33392
G1 X151.26 Y182.221 E8.38015
G1 X150.977 Y182.367 E8.39074
G1 X149.833 Y182.945 E8.43337
G1 X148.974 Y183.363 E8.46514
G1 X148.667 Y183.508 E8.47644
G1 X147.562 Y184.02 E8.51694
G1 X146.451 Y184.511 E8.55734
G1 X145.523 Y184.905 E8.59087
G1 X145.199 Y185.038 E8.60252
G1 X144.135 Y185.465 E8.64065
G1 X143.014 Y185.894 E8.68058
G1 X142.822 Y185.965 E8.68739
G1 X141.628 Y186.394 E8.72958
G1 X140.597 Y186.746 E8.76582
G1 X139.416 Y187.129 E8.80711
G1 X138.295 Y187.472 E8.8461
G1 X137.154 Y187.801 E8.8856
G1 X135.919 Y188.134 E8.92814
G1 X134.838 Y188.408 E8.96523
G1 X134.377 Y188.519 E8.981
G1 X133.369 Y188.752 E9.01541
G1 X133.017 Y188.829 E9.0274
G1 X132.017 Y189.04 E9.06139
G1 X131.813 Y189.081 E9.06831
G1 X130.601 Y189.312 E9.10935
G1 X129.493 Y189.506 E9.14676
G1 X128.323 Y189.691 E9.18616
G1 X127.98 Y189.741 E9.19769
G1 X127.004 Y189.876 E9.23046
G1 X126.801 Y189.902 E9.23727
G1 X125.489 Y190.058 E9.28121
G1 X124.605 Y190.15 E9.31077
G1 X124.175 Y190.191 E9.32514
G1 X122.998 Y190.289 E9.36442
G1 X121.705 Y190.375 E9.40752
G1 X120.744 Y190.425 E9.43953
G1 X120.31 Y190.442 E9.45397
G1 X119.579 Y190.467 E9.4783
G1 X119.063 Y190.48 E9.49547
G1 X118.282 Y190.494 E9.52145
G1 X117.81 Y190.497 E9.53715
G1 X116.587 Y190.492 E9.57783
G1 X115.635 Y190.474 E9.6095
G1 X115.236 Y190.463 E9.62277
G1 X114.455 Y190.434 E9.64877
G1 X113.99 Y190.413 E9.66425
G1 X112.807 Y190.346 E9.70366
G1 X111.734 Y190.269 E9.73944
G1 X110.58 Y190.168 E9.77797
G1 X110.408 Y190.152 E9.78371
G1 X109.35 Y190.041 E9.81909
G1 X108.935 Y189.993 E9.83299
G1 X108.059 Y189.884 E9.86235
G1 X107.691 Y189.835 E9.8747
G1 X106.75 Y189.701 E9.90631
G1 X106.384 Y189.646 E9.91862
G1 X105.558 Y189.514 E9.94644
G1 X105.103 Y189.437 E9.96179
G1 X104.293 Y189.292 E9.98916
G1 X103.928 Y189.224 E10.00151
G1 X103.026 Y189.048 E10.03207
G1 X102.708 Y188.983 E10.04287
G1 X101.754 Y188.78 E10.07531
G1 X101.365 Y188.693 E10.08857
G1 X100.573 Y188.509 E10.11561
G1 X100.128 Y188.401 E10.13084
G1 X99.313 Y188.196 E10.15879
G1 X98.921 Y188.094 E10.17227
G1 X98.165 Y187.891 E10.1983
G1 X96.826 Y187.508 E10.24462
G1 X96.434 Y187.391 E10.25823
G1 X95.643 Y187.147 E10.28576
G1 X95.171 Y186.998 E10.30222
G1 X94.21 Y186.682 E10.33587
G1 X93.249 Y186.351 E10.36968
G1 X92.038 Y185.912 E10.41252
G1 X91.655 Y185.768 E10.42613
G1 X90.73 Y185.411 E10.45911
G1 X90.543 Y185.337 E10.46579
G1 X89.286 Y184.824 E10.51095
G1 X88.548 Y184.51 E10.53763
G1 X87.065 Y183.85 E10.59161
G1 X86.083 Y183.391 E10.62767
G1 X85.809 Y183.259 E10.63778
G1 X84.97 Y182.848 E10.66886
G1 X84.683 Y182.704 E10.67954
G1 X83.782 Y182.243 E10.7132
G1 X82.741 Y181.69 E10.7524
G1 X82.354 Y181.48 E10.76705
G1 X81.534 Y181.023 E10.79827
G1 X80.554 Y180.457 E10.83591
G1 X79.466 Y179.805 E10.8781
G1 X79.145 Y179.608 E10.89063
G1 X78.134 Y178.973 E10.93034
G1 X77.121 Y178.313 E10.97055
G1 X76.2 Y177.69 E11.00753
G1 X75.909 Y177.49 E11.01927
G1 X75.11 Y176.928 E11.05177
G1 X74.187 Y176.259 E11.08968
G1 X73.175 Y175.499 E11.13177
G1 X72.144 Y174.697 E11.17522
G1 X71.99 Y174.575 E11.18175
G1 X71.102 Y173.856 E11.21976
G1 X70.825 Y173.627 E11.23171
G1 X70.158 Y173.065 E11.26072
G1 X69.876 Y172.822 E11.2731
G1 X68.992 Y172.049 E11.31216
G1 X68.128 Y171.268 E11.35089
G1 X67.292 Y170.488 E11.38892
G1 X66.965 Y170.176 E11.40396
G1 X66.3 Y169.531 E11.43477
G1 X65.381 Y168.61 E11.47804
G1 X65.258 Y168.485 E11.48388
G1 X64.619 Y167.822 E11.5145
G1 X64.358 Y167.546 E11.52714
G1 X63.582 Y166.71 E11.56507
G1 X62.73 Y165.76 E11.60752
G1 X61.988 Y164.904 E11.6452
G1 X61.201 Y163.966 E11.68592
G1 X60.466 Y163.062 E11.72467
G1 X60.23 Y162.765 E11.73729
G1 X59.614 Y161.974 E11.77063
G1 X58.826 Y160.929 E11.81416
G1 X58.198 Y160.067 E11.84964
G1 X57.387 Y158.914 E11.89652
G1 X57.222 Y158.674 E11.90621
G1 X56.664 Y157.844 E11.93947
G1 X55.94 Y156.732 E11.98361
G1 X55.33 Y155.756 E12.02189
G1 X55.115 Y155.404 E12.03561
G1 X54.514 Y154.396 E12.07464
G1 X53.959 Y153.434 E12.11158
G1 X53.472 Y152.559 E12.14488
G1 X52.737 Y151.182 E12.1968
G1 X52.651 Y151.016 E12.20302
G1 X52.088 Y149.902 E12.24453
G1 X51.661 Y149.025 E12.27698
G1 X51.509 Y148.706 E12.28873
G1 X51.109 Y147.845 E12.32031
G1 X50.539 Y146.565 E12.36691
G1 X50.078 Y145.478 E12.40618
G1 X49.579 Y144.245 E12.45042
G1 X49.13 Y143.077 E12.49204
G1 X49.058 Y142.884 E12.49889
G1 X48.617 Y141.663 E12.54207
G1 X48.316 Y140.787 E12.57288
G1 X47.896 Y139.496 E12.61803
G1 X47.839 Y139.317 E12.62428
G1 X47.523 Y138.282 E12.66027
G1 X47.197 Y137.15 E12.69945
G1 X46.875 Y135.956 E12.74058
G1 X46.831 Y135.788 E12.74636
G1 X46.536 Y134.61 E12.78675
G1 X46.297 Y133.588 E12.82166
G1 X46.253 Y133.392 E12.82834
G1 X46.008 Y132.251 E12.86716
G1 X45.967 Y132.052 E12.87391
G1 X45.761 Y130.998 E12.90963
G1 X45.527 Y129.688 E12.95389
G1 X45.471 Y129.352 E12.96522
G1 X45.282 Y128.136 E13.00615
G1 X45.093 Y126.773 E13.05192
G1 X44.957 Y125.627 E13.0903
G1 X44.837 Y124.482 E13.1286
G1 X44.742 Y123.415 E13.16422
G1 X44.651 Y122.159 E13.20611
G1 X44.578 Y120.825 E13.25054
G1 X44.56 Y120.393 E13.26492
G1 X44.532 Y119.591 E13.29162
G1 X44.523 Y119.236 E13.30343
G1 X44.505 Y118.232 E13.33683
G1 X44.503 Y117.935 E13.3467
G1 X44.503 Y117.064 E13.37567
G1 X44.507 Y116.641 E13.38974
G1 X44.525 Y115.672 E13.42198
G1 X44.535 Y115.313 E13.43392
G1 X44.563 Y114.521 E13.46028
G1 X44.584 Y114.059 E13.47566
G1 X44.651 Y112.841 E13.51624
G1 X44.742 Y111.587 E13.55805
G1 X44.837 Y110.518 E13.59375
G1 X44.974 Y109.219 E13.63719
G1 X44.992 Y109.057 E13.64261
G1 X45.095 Y108.21 E13.67099
G1 X45.282 Y106.864 E13.71619
G1 X45.471 Y105.647 E13.75715
G1 X45.504 Y105.449 E13.76383
G1 X45.723 Y104.208 E13.80574
G1 X45.969 Y102.938 E13.84877
G1 X46.252 Y101.605 E13.89409
G1 X46.536 Y100.387 E13.93569
G1 X46.783 Y99.394 E13.96972
G1 X47.121 Y98.124 E14.01344
G1 X47.201 Y97.838 E14.02331
G1 X47.5 Y96.8 E14.05924
G1 X47.865 Y95.602 E14.10089
G1 X47.923 Y95.417 E14.10734
G1 X48.244 Y94.431 E14.14183
G1 X48.356 Y94.099 E14.15349
G1 X48.683 Y93.153 E14.18678
G1 X49.138 Y91.904 E14.23099
G1 X49.206 Y91.722 E14.23745
G1 X49.643 Y90.592 E14.27775
G1 X50.071 Y89.538 E14.31558
G1 X50.54 Y88.432 E14.35554
G1 X51.073 Y87.233 E14.39918
G1 X51.557 Y86.193 E14.43733
G1 X51.703 Y85.887 E14.44861
G1 X52.162 Y84.95 E14.48331
G1 X52.654 Y83.979 E14.51952
G1 X52.751 Y83.792 E14.52653
G1 X53.322 Y82.718 E14.56698
G1 X53.467 Y82.451 E14.57709
G1 X54.053 Y81.399 E14.61714
G1 X54.595 Y80.466 E14.65303
G1 X55.177 Y79.494 E14.69071
G1 X55.384 Y79.156 E14.70389
G1 X55.85 Y78.411 E14.73312
G1 X56.033 Y78.125 E14.74441
G1 X56.617 Y77.226 E14.78007
G1 X57.215 Y76.337 E14.8157
G1 X57.324 Y76.178 E14.82211
G1 X57.959 Y75.269 E14.85899
G1 X58.758 Y74.165 E14.90432
G1 X58.942 Y73.916 E14.91462
G1 X59.721 Y72.887 E14.95754
G1 X60.295 Y72.154 E14.98851
G1 X60.533 Y71.855 E15.00122
G1 X61.19 Y71.046 E15.03588
G1 X61.987 Y70.096 E15.07713
G1 X62.8 Y69.162 E15.11831
G1 X63.591 Y68.281 E15.15769
G1 X64.426 Y67.382 E15.1985
G1 X64.718 Y67.075 E15.21259
G1 X65.355 Y66.416 E15.24308
G1 X65.603 Y66.164 E15.25484
G0 F6000 X65.886 Y66.448
