;FLAVOR:Marlin
;TIME:2711
;Filament used: 1.52597m
;Layer height: 0.2
;MINX:45.504
;MINY:45.504
;MINZ:0.2
;MAXX:189.496
;MAXY:189.496
;MAXZ:6.6
;Generated with Cura_SteamEngine 4.12.1
M140 S50
M105
M190 S50
M104 S200
M105
M109 S200
M82 ;absolute extrusion mode
; Ender 3 Custom Start G-code
G92 E0 ; Reset Extruder
G28 ; Home all axes
G1 Z2.0 F3000 ; Move Z Axis up little to prevent scratching of Heat Bed
G1 X0.1 Y20 Z0.3 F5000.0 ; Move to start position
G1 X0.1 Y200.0 Z0.3 F1500.0 E15 ; Draw the first line
G1 X0.4 Y200.0 Z0.3 F5000.0 ; Move to side a little
G1 X0.4 Y20 Z0.3 F1500.0 E30 ; Draw the second line
G92 E0 ; Reset Extruder
G1 Z2.0 F3000 ; Move Z Axis up little to prevent scratching of Heat Bed
G1 X5 Y20 Z0.3 F5000.0 ; Move over to prevent blob squish
G92 E0
G92 E0
G1 F2700 E-5
;LAYER_COUNT:33
;LAYER:0
M107
G0 F6000 X66.265 Y66.916 Z0.2
;TYPE:SKIRT
G1 F2700 E0
G1 F1200 X67.034 Y66.149 E0.03612
G1 X68.077 Y65.146 E0.08425
G1 X68.798 Y64.475 E0.11701
G1 X69.129 Y64.172 E0.13194
G1 X69.875 Y63.504 E0.16524
G1 X70.8 Y62.704 E0.20592
G1 X71.59 Y62.039 E0.24026
G1 X71.744 Y61.912 E0.2469
G1 X72.618 Y61.205 E0.28429
G1 X72.948 Y60.943 E0.29831
G1 X73.629 Y60.413 E0.32701
G1 X74.581 Y59.694 E0.36669
G1 X74.747 Y59.571 E0.37356
G1 X75.751 Y58.844 E0.41479
G1 X76.811 Y58.104 E0.45778
G1 X77.665 Y57.528 E0.49205
G1 X77.999 Y57.307 E0.50537
G1 X78.859 Y56.751 E0.53943
G1 X79.881 Y56.113 E0.5795
G1 X80.961 Y55.464 E0.62141
G1 X81.129 Y55.365 E0.62789
G1 X82.173 Y54.766 E0.66793
G1 X83.153 Y54.224 E0.70517
G1 X84.26 Y53.636 E0.74686
G1 X84.421 Y53.552 E0.7529
G1 X85.347 Y53.081 E0.78746
G1 X86.592 Y52.475 E0.83351
G1 X87.48 Y52.06 E0.86611
G1 X88.568 Y51.571 E0.90579
G1 X88.756 Y51.489 E0.91261
G1 X89.787 Y51.05 E0.94988
G1 X89.977 Y50.971 E0.95672
G1 X90.98 Y50.566 E0.9927
G1 X92.21 Y50.092 E1.03654
G1 X92.519 Y49.976 E1.04752
G1 X93.388 Y49.66 E1.07827
G1 X93.575 Y49.594 E1.08487
G1 X94.641 Y49.228 E1.12236
G1 X95.842 Y48.838 E1.16436
G1 X97.01 Y48.48 E1.20499
G1 X97.418 Y48.36 E1.21913
G1 X98.464 Y48.064 E1.25529
G1 X99.338 Y47.83 E1.28538
G1 X100.505 Y47.538 E1.32539
G1 X100.901 Y47.442 E1.33895
G1 X101.842 Y47.226 E1.37106
G1 X102.185 Y47.15 E1.38274
G1 X103.243 Y46.928 E1.4187
G1 X104.41 Y46.702 E1.45823
G1 X105.641 Y46.487 E1.4998
G1 X106.914 Y46.286 E1.54266
G1 X107.997 Y46.133 E1.57904
G1 X108.385 Y46.082 E1.59206
G1 X109.328 Y45.968 E1.62365
G1 X110.497 Y45.844 E1.66275
G1 X110.694 Y45.825 E1.66933
G1 X111.73 Y45.734 E1.70392
G1 X111.937 Y45.718 E1.71083
G1 X113.296 Y45.626 E1.75613
G1 X114.565 Y45.563 E1.79839
G1 X115.619 Y45.527 E1.83347
G1 X116.682 Y45.507 E1.86883
G1 X116.879 Y45.505 E1.87538
G1 X118.043 Y45.504 E1.91409
G1 X118.435 Y45.508 E1.92713
G1 X119.513 Y45.53 E1.96299
G1 X120.68 Y45.573 E2.00184
G1 X121.815 Y45.633 E2.03964
G1 X122.246 Y45.66 E2.054
G1 X123.304 Y45.737 E2.08928
G1 X124.45 Y45.838 E2.12755
G1 X125.646 Y45.965 E2.16755
G1 X126.868 Y46.114 E2.2085
G1 X127.241 Y46.165 E2.22102
G1 X128.39 Y46.331 E2.25963
G1 X129.406 Y46.494 E2.29385
G1 X130.648 Y46.714 E2.33581
G1 X131.677 Y46.912 E2.37066
G1 X133.036 Y47.198 E2.41685
G1 X133.297 Y47.256 E2.42574
G1 X134.242 Y47.476 E2.45801
G1 X134.687 Y47.584 E2.47324
G1 X135.724 Y47.847 E2.50883
G1 X136.559 Y48.07 E2.53757
G1 X137.068 Y48.212 E2.55515
G1 X138.148 Y48.526 E2.59256
G1 X139.02 Y48.793 E2.62289
G1 X140.194 Y49.173 E2.66393
G1 X140.555 Y49.295 E2.6766
G1 X141.563 Y49.643 E2.71207
G1 X142.644 Y50.036 E2.75033
G1 X142.951 Y50.152 E2.76124
G1 X143.988 Y50.553 E2.79822
G1 X145.245 Y51.062 E2.84333
G1 X146.223 Y51.479 E2.87869
G1 X147.468 Y52.034 E2.92403
G1 X148.666 Y52.598 E2.96807
G1 X149.572 Y53.041 E3.00161
G1 X150.553 Y53.538 E3.03819
G1 X150.736 Y53.633 E3.04505
G1 X151.773 Y54.183 E3.08409
G1 X151.973 Y54.292 E3.09166
G1 X153.189 Y54.971 E3.13799
G1 X154.027 Y55.457 E3.17021
G1 X155.175 Y56.147 E3.21476
G1 X156.063 Y56.702 E3.24958
G1 X156.407 Y56.921 E3.26315
G1 X157.23 Y57.457 E3.29581
G1 X158.17 Y58.089 E3.33349
G1 X159.212 Y58.816 E3.37575
G1 X160.172 Y59.51 E3.41515
G1 X161.228 Y60.302 E3.45905
G1 X161.391 Y60.427 E3.46588
G1 X162.235 Y61.086 E3.5015
G1 X162.496 Y61.295 E3.51262
G1 X163.304 Y61.951 E3.54723
G1 X163.467 Y62.086 E3.55427
G1 X164.46 Y62.926 E3.59753
G1 X165.142 Y63.519 E3.62759
G1 X165.37 Y63.722 E3.63775
G1 X166.281 Y64.546 E3.6786
G1 X167.074 Y65.287 E3.7147
G1 X167.813 Y65.999 E3.74883
G1 X168.712 Y66.894 E3.79102
G1 X169.582 Y67.79 E3.83256
G1 X169.714 Y67.928 E3.83891
G1 X170.479 Y68.747 E3.87619
G1 X170.731 Y69.022 E3.88859
G1 X171.392 Y69.757 E3.92147
G1 X171.532 Y69.916 E3.92852
G1 X172.371 Y70.887 E3.9712
G1 X173.056 Y71.704 E4.00666
G1 X173.753 Y72.564 E4.04348
G1 X173.987 Y72.858 E4.05598
G1 X174.586 Y73.627 E4.0884
G1 X175.369 Y74.665 E4.13164
G1 X175.493 Y74.833 E4.13859
G1 X176.248 Y75.878 E4.18147
G1 X176.912 Y76.834 E4.22018
G1 X177.526 Y77.745 E4.25672
G1 X178.237 Y78.84 E4.30014
G1 X178.769 Y79.687 E4.33341
G1 X178.865 Y79.843 E4.3395
G1 X179.516 Y80.926 E4.38153
G1 X180.07 Y81.881 E4.41825
G1 X180.177 Y82.07 E4.42547
G1 X180.811 Y83.217 E4.46906
G1 X181.306 Y84.148 E4.50413
G1 X181.837 Y85.185 E4.54288
G1 X182.43 Y86.39 E4.58755
G1 X182.565 Y86.674 E4.59801
G1 X183.103 Y87.834 E4.64054
G1 X183.429 Y88.566 E4.66719
G1 X183.985 Y89.871 E4.71437
G1 X184.067 Y90.069 E4.7215
G1 X184.565 Y91.312 E4.76604
G1 X185 Y92.456 E4.80674
G1 X185.374 Y93.483 E4.8431
G1 X185.711 Y94.458 E4.87741
G1 X185.764 Y94.614 E4.88289
G1 X186.123 Y95.714 E4.92137
G1 X186.224 Y96.036 E4.9326
G1 X186.539 Y97.07 E4.96855
G1 X186.872 Y98.232 E5.00875
G1 X187.157 Y99.292 E5.04526
G1 X187.464 Y100.51 E5.08704
G1 X187.547 Y100.852 E5.09874
G1 X187.827 Y102.077 E5.14054
G1 X188.052 Y103.138 E5.17661
G1 X188.094 Y103.345 E5.18364
G1 X188.33 Y104.582 E5.22552
G1 X188.5 Y105.554 E5.25834
G1 X188.685 Y106.716 E5.29748
G1 X188.844 Y107.82 E5.33457
G1 X188.87 Y108.012 E5.34102
G1 X189.018 Y109.2 E5.38084
G1 X189.041 Y109.4 E5.38753
G1 X189.149 Y110.418 E5.42158
G1 X189.168 Y110.615 E5.42816
G1 X189.285 Y111.965 E5.47323
G1 X189.357 Y112.998 E5.50767
G1 X189.377 Y113.349 E5.51937
G1 X189.426 Y114.296 E5.55091
G1 X189.471 Y115.558 E5.59291
G1 X189.476 Y115.755 E5.59946
G1 X189.496 Y117.037 E5.64211
G1 X189.495 Y118.077 E5.6767
G1 X189.474 Y119.32 E5.71805
G1 X189.434 Y120.515 E5.75781
G1 X189.426 Y120.704 E5.76411
G1 X189.373 Y121.727 E5.79818
G1 X189.349 Y122.128 E5.81154
G1 X189.285 Y123.034 E5.84175
G1 X189.168 Y124.383 E5.88678
G1 X189.149 Y124.581 E5.8934
G1 X189.041 Y125.599 E5.92745
G1 X189.018 Y125.799 E5.93414
G1 X188.87 Y126.987 E5.97396
G1 X188.711 Y128.113 E6.01178
G1 X188.507 Y129.401 E6.05516
G1 X188.473 Y129.604 E6.062
G1 X188.265 Y130.76 E6.10107
G1 X188.096 Y131.634 E6.13068
G1 X187.83 Y132.904 E6.17383
G1 X187.785 Y133.109 E6.18082
G1 X187.502 Y134.33 E6.2225
G1 X187.209 Y135.509 E6.26291
G1 X186.911 Y136.625 E6.30133
G1 X186.823 Y136.943 E6.3123
G1 X186.539 Y137.931 E6.34649
G1 X186.224 Y138.965 E6.38244
G1 X186.084 Y139.408 E6.3979
G1 X185.764 Y140.386 E6.43212
G1 X185.374 Y141.518 E6.47195
G1 X184.901 Y142.812 E6.51777
G1 X184.497 Y143.863 E6.55522
G1 X184.429 Y144.036 E6.5614
G1 X184.058 Y144.953 E6.5943
G1 X183.505 Y146.258 E6.64144
G1 X183.43 Y146.432 E6.64775
G1 X183.104 Y147.164 E6.6744
G1 X182.563 Y148.33 E6.71715
G1 X182.022 Y149.443 E6.75831
G1 X181.84 Y149.809 E6.7719
G1 X181.308 Y150.848 E6.81073
G1 X180.799 Y151.806 E6.84681
G1 X180.7 Y151.988 E6.8537
G1 X180.171 Y152.94 E6.88992
G1 X180.069 Y153.12 E6.89681
G1 X179.514 Y154.076 E6.93357
G1 X178.965 Y154.992 E6.96909
G1 X178.769 Y155.312 E6.98157
G1 X178.242 Y156.152 E7.01455
G1 X177.641 Y157.081 E7.05136
G1 X177.53 Y157.249 E7.05805
G1 X176.788 Y158.349 E7.10218
G1 X176.252 Y159.117 E7.13333
G1 X175.495 Y160.166 E7.17636
G1 X175.371 Y160.334 E7.1833
G1 X174.701 Y161.224 E7.22036
G1 X173.981 Y162.149 E7.25934
G1 X173.87 Y162.29 E7.26531
G1 X173.127 Y163.21 E7.30464
G1 X172.93 Y163.447 E7.31489
G1 X172.122 Y164.405 E7.35658
G1 X171.328 Y165.314 E7.39672
G1 X170.658 Y166.059 E7.43005
G1 X170.425 Y166.312 E7.44149
G1 X169.805 Y166.978 E7.47175
G1 X169.552 Y167.243 E7.48394
G1 X168.824 Y167.993 E7.5187
G1 X168.081 Y168.737 E7.55367
G1 X167.227 Y169.566 E7.59326
G1 X167.082 Y169.704 E7.59992
G1 X166.194 Y170.533 E7.64032
G1 X165.871 Y170.828 E7.65487
G1 X165.125 Y171.496 E7.68818
G1 X164.2 Y172.296 E7.72885
G1 X163.41 Y172.961 E7.7632
G1 X163.256 Y173.088 E7.76984
G1 X162.382 Y173.795 E7.80723
G1 X162.052 Y174.057 E7.82124
G1 X161.372 Y174.586 E7.84989
G1 X160.235 Y175.443 E7.89725
G1 X159.325 Y176.102 E7.93462
G1 X159.171 Y176.212 E7.94091
G1 X158.245 Y176.858 E7.97847
G1 X157.335 Y177.472 E8.01498
G1 X157 Y177.694 E8.02835
G1 X156.016 Y178.328 E8.06728
G1 X155.126 Y178.883 E8.10216
G1 X154.039 Y179.536 E8.14434
G1 X153.871 Y179.635 E8.15083
G1 X152.827 Y180.234 E8.19086
G1 X151.847 Y180.776 E8.22811
G1 X150.74 Y181.364 E8.2698
G1 X150.579 Y181.448 E8.27584
G1 X149.653 Y181.919 E8.31039
G1 X148.408 Y182.525 E8.35645
G1 X147.52 Y182.94 E8.38905
G1 X146.432 Y183.429 E8.42872
G1 X146.244 Y183.511 E8.43554
G1 X145.213 Y183.95 E8.47281
G1 X145.023 Y184.029 E8.47966
G1 X144.02 Y184.434 E8.51563
G1 X142.79 Y184.908 E8.55948
G1 X142.481 Y185.024 E8.57045
G1 X141.612 Y185.34 E8.60121
G1 X141.419 Y185.408 E8.60801
G1 X140.177 Y185.832 E8.65166
G1 X139.165 Y186.16 E8.68705
G1 X137.99 Y186.52 E8.72792
G1 X137.579 Y186.641 E8.74217
G1 X136.535 Y186.936 E8.77825
G1 X135.661 Y187.17 E8.80835
G1 X134.433 Y187.477 E8.85045
G1 X134.08 Y187.562 E8.86252
G1 X132.805 Y187.852 E8.90601
G1 X131.747 Y188.073 E8.94196
G1 X130.797 Y188.258 E8.97415
G1 X129.52 Y188.486 E9.0173
G1 X129.313 Y188.521 E9.02428
G1 X128.095 Y188.713 E9.06529
G1 X127.003 Y188.867 E9.10197
G1 X126.613 Y188.918 E9.11505
G1 X125.671 Y189.032 E9.14661
G1 X124.502 Y189.156 E9.18571
G1 X123.27 Y189.266 E9.22685
G1 X123.063 Y189.282 E9.23376
G1 X121.703 Y189.374 E9.27909
G1 X120.435 Y189.437 E9.32132
G1 X119.381 Y189.473 E9.3564
G1 X118.317 Y189.493 E9.39179
G1 X118.12 Y189.495 E9.39834
G1 X116.955 Y189.496 E9.43709
G1 X116.565 Y189.492 E9.45006
G1 X115.487 Y189.47 E9.48593
G1 X114.32 Y189.427 E9.52477
G1 X113.185 Y189.367 E9.56257
G1 X112.754 Y189.34 E9.57693
G1 X111.696 Y189.263 E9.61222
G1 X110.55 Y189.162 E9.65048
G1 X109.354 Y189.035 E9.69048
G1 X108.132 Y188.886 E9.73143
G1 X107.759 Y188.835 E9.74395
G1 X106.61 Y188.669 E9.78256
G1 X105.594 Y188.506 E9.81679
G1 X104.352 Y188.286 E9.85874
G1 X103.323 Y188.088 E9.89359
G1 X103.117 Y188.046 E9.90058
G1 X101.814 Y187.768 E9.9449
G1 X100.748 Y187.522 E9.98128
G1 X100.327 Y187.42 E9.99569
G1 X99.628 Y187.244 E10.01967
G1 X99.272 Y187.152 E10.0319
G1 X98.329 Y186.899 E10.06437
G1 X97.928 Y186.787 E10.07822
G1 X96.852 Y186.474 E10.11549
G1 X95.98 Y186.207 E10.14582
G1 X94.817 Y185.831 E10.18647
G1 X94.44 Y185.704 E10.1997
G1 X93.437 Y185.357 E10.235
G1 X92.356 Y184.964 E10.27326
G1 X92.045 Y184.847 E10.28431
G1 X91.176 Y184.512 E10.31529
G1 X89.936 Y184.012 E10.35976
G1 X89.756 Y183.938 E10.36623
G1 X88.778 Y183.521 E10.40159
G1 X87.728 Y183.054 E10.43981
G1 X87.376 Y182.893 E10.45269
G1 X86.338 Y182.404 E10.49085
G1 X85.428 Y181.959 E10.52454
G1 X84.447 Y181.462 E10.56112
G1 X83.228 Y180.818 E10.60697
G1 X83.019 Y180.704 E10.61489
G1 X81.811 Y180.029 E10.66092
G1 X80.973 Y179.543 E10.69314
G1 X79.825 Y178.853 E10.73769
G1 X78.937 Y178.298 E10.77252
G1 X78.593 Y178.079 E10.78608
G1 X77.77 Y177.543 E10.81875
G1 X76.83 Y176.911 E10.85642
G1 X75.788 Y176.184 E10.89868
G1 X74.828 Y175.49 E10.93808
G1 X73.772 Y174.698 E10.98198
G1 X73.609 Y174.573 E10.98881
G1 X72.765 Y173.914 E11.02443
G1 X72.504 Y173.705 E11.03555
G1 X71.532 Y172.914 E11.07723
G1 X70.658 Y172.176 E11.11528
G1 X69.858 Y171.481 E11.15052
G1 X69.63 Y171.278 E11.16068
G1 X68.719 Y170.454 E11.20153
G1 X68.059 Y169.839 E11.23154
G1 X67.18 Y168.993 E11.27211
G1 X67.045 Y168.861 E11.27839
G1 X66.288 Y168.106 E11.31395
G1 X65.418 Y167.21 E11.35549
G1 X65.286 Y167.072 E11.36184
G1 X64.521 Y166.253 E11.39912
G1 X64.269 Y165.978 E11.41152
G1 X63.608 Y165.243 E11.4444
G1 X63.468 Y165.084 E11.45145
G1 X62.629 Y164.113 E11.49413
G1 X61.944 Y163.296 E11.52959
G1 X61.247 Y162.436 E11.56641
G1 X61.02 Y162.151 E11.57853
G1 X60.415 Y161.376 E11.61123
G1 X59.624 Y160.326 E11.65495
G1 X59.506 Y160.166 E11.66157
G1 X58.852 Y159.262 E11.69868
G1 X58.737 Y159.1 E11.70528
G1 X58.086 Y158.163 E11.74323
G1 X57.473 Y157.253 E11.77972
G1 X56.763 Y156.16 E11.82307
G1 X56.231 Y155.313 E11.85634
G1 X56.135 Y155.157 E11.86243
G1 X55.484 Y154.074 E11.90446
G1 X54.93 Y153.119 E11.94118
G1 X54.825 Y152.934 E11.94826
G1 X54.281 Y151.953 E11.98557
G1 X54.18 Y151.766 E11.99264
G1 X53.615 Y150.699 E12.03279
G1 X53.056 Y149.601 E12.07377
G1 X52.522 Y148.508 E12.11423
G1 X51.972 Y147.329 E12.1575
G1 X51.897 Y147.166 E12.16347
G1 X51.571 Y146.434 E12.19012
G1 X50.982 Y145.051 E12.24012
G1 X50.897 Y144.845 E12.24753
G1 X50.435 Y143.689 E12.28894
G1 X50.059 Y142.704 E12.324
G1 X49.625 Y141.514 E12.36613
G1 X49.289 Y140.542 E12.40034
G1 X49.236 Y140.386 E12.40582
G1 X48.877 Y139.286 E12.44431
G1 X48.776 Y138.961 E12.45562
G1 X48.412 Y137.76 E12.49736
G1 X48.149 Y136.845 E12.52903
G1 X48.063 Y136.53 E12.53989
G1 X47.747 Y135.335 E12.581
G1 X47.454 Y134.151 E12.62157
G1 X47.171 Y132.914 E12.66378
G1 X46.94 Y131.82 E12.70096
G1 X46.704 Y130.601 E12.74226
G1 X46.67 Y130.418 E12.74845
G1 X46.5 Y129.446 E12.78127
G1 X46.315 Y128.284 E12.82041
G1 X46.156 Y127.18 E12.85751
G1 X46.13 Y126.988 E12.86395
G1 X45.982 Y125.8 E12.90377
G1 X45.959 Y125.6 E12.91046
G1 X45.851 Y124.582 E12.94451
G1 X45.831 Y124.373 E12.9515
G1 X45.709 Y122.95 E12.999
G1 X45.643 Y122.002 E13.03061
G1 X45.623 Y121.651 E13.0423
G1 X45.574 Y120.704 E13.07384
G1 X45.529 Y119.441 E13.11587
G1 X45.524 Y119.244 E13.12243
G1 X45.504 Y117.963 E13.16504
G1 X45.505 Y116.923 E13.19963
G1 X45.526 Y115.68 E13.24098
G1 X45.566 Y114.485 E13.28074
G1 X45.574 Y114.296 E13.28704
G1 X45.627 Y113.273 E13.32111
G1 X45.652 Y112.858 E13.33494
G1 X45.736 Y111.711 E13.37319
G1 X45.851 Y110.419 E13.41633
G1 X45.959 Y109.401 E13.45038
G1 X45.982 Y109.201 E13.45707
G1 X46.13 Y108.013 E13.49689
G1 X46.289 Y106.887 E13.53471
G1 X46.493 Y105.599 E13.57809
G1 X46.527 Y105.396 E13.58493
G1 X46.734 Y104.244 E13.62386
G1 X46.909 Y103.337 E13.65459
G1 X47.191 Y101.999 E13.70007
G1 X47.235 Y101.8 E13.70684
G1 X47.498 Y100.67 E13.74543
G1 X47.792 Y99.489 E13.78591
G1 X48.085 Y98.389 E13.82377
G1 X48.177 Y98.057 E13.83523
G1 X48.461 Y97.069 E13.86942
G1 X48.776 Y96.035 E13.90538
G1 X48.916 Y95.592 E13.92083
G1 X49.236 Y94.614 E13.95505
G1 X49.626 Y93.482 E13.99488
G1 X50.099 Y92.188 E14.0407
G1 X50.569 Y90.968 E14.08418
G1 X50.94 Y90.05 E14.11712
G1 X51.42 Y88.913 E14.15816
G1 X51.496 Y88.737 E14.16454
G1 X51.89 Y87.849 E14.19685
G1 X52.439 Y86.667 E14.2402
G1 X52.526 Y86.483 E14.24697
G1 X53.077 Y85.357 E14.28866
G1 X53.554 Y84.419 E14.32366
G1 X53.692 Y84.152 E14.33366
G1 X54.201 Y83.194 E14.36974
G1 X54.3 Y83.012 E14.37663
G1 X54.829 Y82.06 E14.41286
G1 X54.931 Y81.88 E14.41974
G1 X55.486 Y80.924 E14.4565
G1 X56.035 Y80.008 E14.49202
G1 X56.231 Y79.688 E14.5045
G1 X56.758 Y78.848 E14.53749
G1 X57.359 Y77.919 E14.57429
G1 X57.47 Y77.751 E14.58098
G1 X58.212 Y76.651 E14.62512
G1 X58.864 Y75.72 E14.66292
G1 X59.512 Y74.824 E14.6997
G1 X59.631 Y74.663 E14.70636
G1 X60.418 Y73.621 E14.74979
G1 X61.13 Y72.71 E14.78824
G1 X61.873 Y71.79 E14.82758
G1 X62.07 Y71.553 E14.83783
G1 X62.878 Y70.595 E14.87951
G1 X63.672 Y69.686 E14.91965
G1 X64.342 Y68.941 E14.95298
G1 X64.575 Y68.688 E14.96442
G1 X65.195 Y68.022 E14.99468
G1 X65.436 Y67.77 E15.00628
G1 X66.057 Y67.128 E15.03599
G1 X66.265 Y66.916 E15.04586
G0 F6000 X66.551 Y67.196
G1 F1200 X67.311 Y66.437 E15.08159
G1 X68.22 Y65.561 E15.12358
G1 X69.069 Y64.769 E15.16219
G1 X69.396 Y64.47 E15.17693
G1 X70.142 Y63.802 E15.21024
G1 X70.29 Y63.672 E15.21679
G1 X71.164 Y62.919 E15.25516
G1 X71.996 Y62.222 E15.29126
G1 X72.867 Y61.518 E15.32851
G1 X73.194 Y61.258 E15.3424
G1 X73.87 Y60.732 E15.37089
G1 X74.822 Y60.013 E15.41057
G1 X75.829 Y59.28 E15.452
