;FLAVOR:Marlin
;TIME:12606
;Filament used: 10.249m
;Layer height: 0.2
;MINX:44.521
;MINY:44.521
;MINZ:0.2
;MAXX:190.479
;MAXY:190.479
;MAXZ:4
;Generated with Cura_SteamEngine 4.12.1
M140 S50
M105
M190 S50
M104 S200
M105
M109 S200
M82 ;absolute extrusion mode
; Ender 3 Custom Start G-code
G92 E0 ; Reset Extruder
G28 ; Home all axes
G1 Z2.0 F3000 ; Move Z Axis up little to prevent scratching of Heat Bed
G1 X0.1 Y20 Z0.3 F5000.0 ; Move to start position
G1 X0.1 Y200.0 Z0.3 F1500.0 E15 ; Draw the first line
G1 X0.4 Y200.0 Z0.3 F5000.0 ; Move to side a little
G1 X0.4 Y20 Z0.3 F1500.0 E30 ; Draw the second line
G92 E0 ; Reset Extruder
G1 Z2.0 F3000 ; Move Z Axis up little to prevent scratching of Heat Bed
G1 X5 Y20 Z0.3 F5000.0 ; Move over to prevent blob squish
G92 E0
G92 E0
G1 F2700 E-5
;LAYER_COUNT:20
;LAYER:0
M107
G0 F6000 X65.987 Y65.805 Z0.2
;TYPE:SKIRT
G1 F2700 E0
G1 F1200 X66.874 Y64.966 E0.04061
G1 X67.047 Y64.806 E0.04845
G1 X70.382 Y61.785 E0.19811
G1 X70.785 Y61.432 E0.21593
G1 X71.293 Y61.014 E0.23781
G1 X72.29 Y60.241 E0.27977
G1 X72.477 Y60.099 E0.28758
G1 X76.103 Y57.411 E0.43771
G1 X76.509 Y57.12 E0.45432
G1 X77.062 Y56.749 E0.47647
G1 X78.048 Y56.129 E0.51521
G1 X78.247 Y56.007 E0.52297
G1 X82.196 Y53.641 E0.67609
G1 X82.602 Y53.406 E0.69169
G1 X83.2 Y53.084 E0.71428
G1 X84.286 Y52.542 E0.75465
G1 X84.494 Y52.441 E0.76234
G1 X88.559 Y50.519 E0.91189
G1 X89.06 Y50.291 E0.9302
G1 X89.689 Y50.028 E0.95287
G1 X90.809 Y49.6 E0.99275
G1 X91.03 Y49.518 E1.00059
G1 X95.31 Y47.988 E1.15177
G1 X95.795 Y47.823 E1.16881
G1 X96.444 Y47.625 E1.19138
G1 X97.588 Y47.313 E1.23082
G1 X97.806 Y47.256 E1.23831
G1 X102.214 Y46.151 E1.38946
G1 X102.714 Y46.034 E1.40654
G1 X103.374 Y45.901 E1.42893
G1 X104.602 Y45.692 E1.47036
G1 X104.836 Y45.655 E1.47824
G1 X109.249 Y45.002 E1.62661
G1 X109.777 Y44.931 E1.64433
G1 X110.482 Y44.859 E1.6679
G1 X111.708 Y44.774 E1.70878
G1 X111.926 Y44.761 E1.71604
G1 X116.386 Y44.542 E1.86456
G1 X116.946 Y44.523 E1.8832
G1 X117.631 Y44.521 E1.90598
G1 X118.863 Y44.556 E1.94697
G1 X119.091 Y44.565 E1.95456
G1 X123.525 Y44.784 E2.10222
G1 X124.107 Y44.821 E2.12162
G1 X124.798 Y44.887 E2.1447
G1 X125.976 Y45.037 E2.1842
G1 X126.199 Y45.068 E2.19169
G1 X130.647 Y45.727 E2.34124
G1 X131.142 Y45.806 E2.35792
G1 X131.872 Y45.949 E2.38266
G1 X133.077 Y46.226 E2.42378
G1 X133.286 Y46.276 E2.43093
G1 X137.677 Y47.377 E2.58149
G1 X138.149 Y47.503 E2.59774
G1 X138.799 Y47.698 E2.62031
G1 X139.966 Y48.088 E2.66124
G1 X140.184 Y48.164 E2.66892
G1 X144.414 Y49.678 E2.81835
G1 X144.896 Y49.858 E2.83546
G1 X145.545 Y50.124 E2.85879
G1 X146.659 Y50.623 E2.89939
G1 X146.864 Y50.718 E2.9069
G1 X150.977 Y52.664 E3.05824
G1 X151.383 Y52.863 E3.07328
G1 X152 Y53.189 E3.09649
G1 X153.078 Y53.805 E3.13779
G1 X153.277 Y53.922 E3.14546
G1 X157.121 Y56.228 E3.29456
G1 X157.552 Y56.494 E3.3114
G1 X158.15 Y56.89 E3.33526
G1 X159.178 Y57.621 E3.37721
G1 X159.354 Y57.749 E3.38445
G1 X162.794 Y60.299 E3.52687
G1 X163.344 Y60.718 E3.54987
G1 X163.888 Y61.161 E3.5732
G1 X164.842 Y61.99 E3.61524
G1 X165.013 Y62.142 E3.62285
G1 X168.302 Y65.124 E3.77051
G1 X168.714 Y65.509 E3.78926
G1 X169.195 Y65.987 E3.81182
G1 X170.034 Y66.874 E3.85243
G1 X170.194 Y67.047 E3.86026
G1 X173.215 Y70.382 E4.00993
G1 X173.568 Y70.785 E4.02775
G1 X173.986 Y71.293 E4.04963
G1 X174.759 Y72.29 E4.09159
G1 X174.901 Y72.477 E4.0994
G1 X177.589 Y76.103 E4.24952
G1 X177.88 Y76.509 E4.26614
G1 X178.251 Y77.062 E4.28829
G1 X178.871 Y78.048 E4.32703
G1 X178.993 Y78.247 E4.33479
G1 X181.359 Y82.196 E4.4879
G1 X181.594 Y82.602 E4.50351
G1 X181.916 Y83.2 E4.5261
G1 X182.458 Y84.286 E4.56647
G1 X182.559 Y84.494 E4.57416
G1 X184.481 Y88.559 E4.72371
G1 X184.709 Y89.06 E4.74202
G1 X184.972 Y89.689 E4.76469
G1 X185.4 Y90.809 E4.80457
G1 X185.482 Y91.03 E4.81241
G1 X187.012 Y95.31 E4.96359
G1 X187.177 Y95.795 E4.98063
G1 X187.375 Y96.444 E5.00319
G1 X187.687 Y97.588 E5.04263
G1 X187.744 Y97.806 E5.05013
G1 X188.849 Y102.214 E5.20128
G1 X188.966 Y102.714 E5.21835
G1 X189.099 Y103.374 E5.24075
G1 X189.308 Y104.602 E5.28218
G1 X189.345 Y104.836 E5.29006
G1 X189.997 Y109.244 E5.43826
G1 X190.068 Y109.77 E5.45592
G1 X190.141 Y110.481 E5.47969
G1 X190.226 Y111.709 E5.52063
G1 X190.239 Y111.926 E5.52786
G1 X190.458 Y116.385 E5.67635
G1 X190.477 Y116.944 E5.69495
G1 X190.479 Y117.63 E5.71777
G1 X190.444 Y118.863 E5.75879
G1 X190.435 Y119.091 E5.76638
G1 X190.216 Y123.525 E5.91404
G1 X190.179 Y124.107 E5.93343
G1 X190.113 Y124.798 E5.95652
G1 X189.963 Y125.976 E5.99602
G1 X189.932 Y126.199 E6.00351
G1 X189.273 Y130.647 E6.15306
G1 X189.194 Y131.142 E6.16973
G1 X189.051 Y131.872 E6.19448
G1 X188.774 Y133.077 E6.2356
G1 X188.724 Y133.286 E6.24275
G1 X187.623 Y137.677 E6.39331
G1 X187.497 Y138.149 E6.40956
G1 X187.302 Y138.799 E6.43213
G1 X186.912 Y139.966 E6.47306
G1 X186.836 Y140.184 E6.48074
G1 X185.324 Y144.41 E6.63002
G1 X185.145 Y144.89 E6.64706
G1 X184.877 Y145.544 E6.67057
G1 X184.377 Y146.66 E6.71124
G1 X182.403 Y150.838 E6.86493
G1 X182.137 Y151.383 E6.8851
G1 X181.811 Y152 E6.90831
G1 X181.195 Y153.078 E6.9496
G1 X181.078 Y153.277 E6.95728
G1 X178.772 Y157.121 E7.10638
G1 X178.506 Y157.552 E7.12322
G1 X178.11 Y158.15 E7.14708
G1 X177.379 Y159.178 E7.18903
G1 X177.251 Y159.354 E7.19627
G1 X174.701 Y162.794 E7.33869
G1 X174.282 Y163.344 E7.36169
G1 X173.839 Y163.888 E7.38502
G1 X173.01 Y164.842 E7.42706
G1 X172.858 Y165.013 E7.43467
G1 X169.876 Y168.302 E7.58233
G1 X169.491 Y168.714 E7.60108
G1 X169.013 Y169.195 E7.62364
G1 X168.126 Y170.034 E7.66425
G1 X167.953 Y170.194 E7.67208
G1 X164.618 Y173.215 E7.82175
G1 X164.215 Y173.568 E7.83957
G1 X163.707 Y173.986 E7.86145
G1 X162.71 Y174.759 E7.90341
G1 X162.523 Y174.901 E7.91122
G1 X158.897 Y177.589 E8.06134
G1 X158.491 Y177.88 E8.07796
G1 X157.938 Y178.251 E8.10011
G1 X156.952 Y178.871 E8.13885
G1 X156.753 Y178.993 E8.14661
G1 X152.804 Y181.359 E8.29972
G1 X152.398 Y181.594 E8.31533
G1 X151.8 Y181.916 E8.33792
G1 X150.714 Y182.458 E8.37828
G1 X150.506 Y182.559 E8.38598
G1 X146.441 Y184.481 E8.53553
G1 X145.94 Y184.709 E8.55384
G1 X145.311 Y184.972 E8.57651
G1 X144.191 Y185.4 E8.61639
G1 X143.97 Y185.482 E8.62423
G1 X139.69 Y187.012 E8.77541
G1 X139.205 Y187.177 E8.79245
G1 X138.556 Y187.375 E8.81501
G1 X137.412 Y187.687 E8.85445
G1 X137.194 Y187.744 E8.86195
G1 X132.786 Y188.849 E9.01309
G1 X132.286 Y188.966 E9.03017
G1 X131.626 Y189.099 E9.05257
G1 X130.398 Y189.308 E9.094
G1 X130.164 Y189.345 E9.10188
G1 X125.751 Y189.998 E9.25025
G1 X125.223 Y190.069 E9.26797
G1 X124.518 Y190.141 E9.29154
G1 X123.292 Y190.226 E9.33242
G1 X123.074 Y190.239 E9.33968
G1 X118.614 Y190.458 E9.4882
G1 X118.054 Y190.477 E9.50684
G1 X117.369 Y190.479 E9.52962
G1 X116.137 Y190.444 E9.57061
G1 X115.909 Y190.435 E9.5782
G1 X111.475 Y190.216 E9.72586
G1 X110.893 Y190.179 E9.74525
G1 X110.202 Y190.113 E9.76834
G1 X109.024 Y189.963 E9.80784
G1 X108.801 Y189.932 E9.81533
G1 X104.353 Y189.273 E9.96488
G1 X103.858 Y189.194 E9.98155
G1 X103.128 Y189.051 E10.0063
G1 X101.923 Y188.774 E10.04742
G1 X101.714 Y188.724 E10.05457
G1 X97.323 Y187.623 E10.20513
G1 X96.851 Y187.497 E10.22138
G1 X96.204 Y187.303 E10.24385
G1 X95.042 Y186.915 E10.28459
G1 X94.819 Y186.838 E10.29244
G1 X90.698 Y185.363 E10.43802
G1 X90.109 Y185.143 E10.45893
G1 X89.471 Y184.882 E10.48186
G1 X88.326 Y184.37 E10.52358
G1 X88.112 Y184.272 E10.5314
G1 X84.182 Y182.413 E10.676
G1 X83.616 Y182.136 E10.69696
G1 X82.996 Y181.808 E10.72029
G1 X81.923 Y181.195 E10.76139
G1 X81.723 Y181.078 E10.7691
G1 X77.879 Y178.772 E10.91819
G1 X77.448 Y178.506 E10.93504
G1 X76.85 Y178.11 E10.95889
G1 X75.822 Y177.379 E11.00085
G1 X75.646 Y177.251 E11.00809
G1 X72.083 Y174.608 E11.15564
G1 X71.652 Y174.279 E11.17367
G1 X71.111 Y173.839 E11.19686
G1 X70.158 Y173.011 E11.23885
G1 X66.822 Y169.99 E11.38854
G1 X66.286 Y169.491 E11.4129
G1 X65.805 Y169.013 E11.43546
G1 X64.966 Y168.126 E11.47606
G1 X64.806 Y167.953 E11.4839
G1 X61.785 Y164.618 E11.63357
G1 X61.432 Y164.215 E11.65139
G1 X61.014 Y163.707 E11.67327
G1 X60.241 Y162.71 E11.71523
G1 X60.099 Y162.523 E11.72304
G1 X57.414 Y158.901 E11.87299
G1 X57.122 Y158.494 E11.88966
G1 X56.746 Y157.935 E11.91206
G1 X56.127 Y156.95 E11.95076
G1 X56.007 Y156.753 E11.95843
G1 X53.639 Y152.802 E12.11163
G1 X53.403 Y152.394 E12.12731
G1 X53.083 Y151.798 E12.14981
G1 X52.542 Y150.714 E12.1901
G1 X52.441 Y150.506 E12.19779
G1 X50.52 Y146.443 E12.34727
G1 X50.291 Y145.94 E12.36566
G1 X50.026 Y145.307 E12.38848
G1 X49.599 Y144.189 E12.42828
G1 X49.518 Y143.97 E12.43605
G1 X47.988 Y139.69 E12.58723
G1 X47.823 Y139.205 E12.60427
G1 X47.625 Y138.556 E12.62683
G1 X47.313 Y137.412 E12.66627
G1 X47.256 Y137.194 E12.67377
G1 X46.151 Y132.786 E12.82491
G1 X46.034 Y132.286 E12.84199
G1 X45.901 Y131.626 E12.86439
G1 X45.692 Y130.398 E12.90582
G1 X45.655 Y130.164 E12.9137
G1 X45.002 Y125.751 E13.06207
G1 X44.931 Y125.223 E13.07979
G1 X44.859 Y124.518 E13.10336
G1 X44.774 Y123.292 E13.14424
G1 X44.761 Y123.074 E13.1515
G1 X44.542 Y118.615 E13.29999
G1 X44.523 Y118.056 E13.31859
G1 X44.521 Y117.37 E13.34141
G1 X44.556 Y116.137 E13.38243
G1 X44.565 Y115.909 E13.39002
G1 X44.784 Y111.475 E13.53768
G1 X44.821 Y110.893 E13.55707
G1 X44.887 Y110.202 E13.58016
G1 X45.037 Y109.024 E13.61966
G1 X45.068 Y108.801 E13.62715
G1 X45.727 Y104.353 E13.7767
G1 X45.806 Y103.858 E13.79337
G1 X45.949 Y103.128 E13.81811
G1 X46.226 Y101.923 E13.85924
G1 X46.276 Y101.714 E13.86639
G1 X47.377 Y97.323 E14.01695
G1 X47.503 Y96.851 E14.0332
G1 X47.698 Y96.201 E14.05577
G1 X48.088 Y95.034 E14.0967
G1 X48.164 Y94.816 E14.10438
G1 X49.676 Y90.59 E14.25366
G1 X49.855 Y90.11 E14.2707
G1 X50.123 Y89.456 E14.2942
G1 X50.623 Y88.34 E14.33488
G1 X52.597 Y84.162 E14.48857
G1 X52.863 Y83.617 E14.50874
G1 X53.189 Y83 E14.53195
G1 X53.805 Y81.922 E14.57324
G1 X53.922 Y81.723 E14.58092
G1 X56.228 Y77.879 E14.73002
G1 X56.494 Y77.448 E14.74686
G1 X56.89 Y76.85 E14.77072
G1 X57.621 Y75.822 E14.81267
G1 X57.749 Y75.646 E14.81991
G1 X60.299 Y72.206 E14.96233
G1 X60.718 Y71.656 E14.98533
G1 X61.161 Y71.112 E15.00866
G1 X61.99 Y70.158 E15.0507
G1 X62.142 Y69.987 E15.05831
G1 X65.124 Y66.698 E15.20597
G1 X65.509 Y66.286 E15.22472
G1 X65.987 Y65.805 E15.24728
G0 F6000 X66.262 Y66.095
G1 F1200 X67.149 Y65.256 E15.28789
G1 X67.315 Y65.102 E15.29542
G1 X70.512 Y62.205 E15.43891
G1 X71.049 Y61.733 E15.46269
G1 X71.538 Y61.33 E15.48377
G1 X72.535 Y60.557 E15.52573
G1 X72.715 Y60.42 E15.53325
G1 X76.196 Y57.838 E15.6774
G1 X76.742 Y57.445 E15.69978
G1 X77.274 Y57.088 E15.72109
G1 X78.26 Y56.468 E15.75983
G1 X78.453 Y56.35 E15.76735
G1 X82.396 Y53.987 E15.92024
G1 X82.802 Y53.752 E15.93584
G1 X83.379 Y53.442 E15.95763
G1 X84.665 Y52.802 E16.00541
G1 X88.724 Y50.883 E16.15474
G1 X89.225 Y50.655 E16.17304
G1 X89.832 Y50.401 E16.19493
G1 X90.952 Y49.973 E16.23481
G1 X91.165 Y49.895 E16.24235
G1 X95.439 Y48.367 E16.39332
G1 X95.924 Y48.202 E16.41036
G1 X96.549 Y48.011 E16.43209
G1 X97.903 Y47.643 E16.47876
G1 X102.141 Y46.58 E16.62408
G1 X102.805 Y46.424 E16.64677
G1 X103.442 Y46.295 E16.66839
G1 X104.67 Y46.086 E16.70982
G1 X104.895 Y46.05 E16.7174
G1 X109.162 Y45.418 E16.86087
G1 X109.83 Y45.328 E16.88328
G1 X110.51 Y45.258 E16.90602
G1 X111.736 Y45.173 E16.9469
G1 X111.946 Y45.161 E16.95389
G1 X116.4 Y44.942 E17.10221
G1 X116.96 Y44.923 E17.12085
G1 X117.62 Y44.921 E17.1428
G1 X118.852 Y44.956 E17.18379
G1 X119.071 Y44.965 E17.19108
G1 X123.5 Y45.183 E17.33857
G1 X124.082 Y45.22 E17.35797
G1 X124.748 Y45.284 E17.38022
G1 X126.141 Y45.463 E17.42693
G1 X130.584 Y46.122 E17.57632
G1 X131.079 Y46.201 E17.593
G1 X131.783 Y46.338 E17.61685
G1 X132.988 Y46.615 E17.65797
G1 X137.416 Y47.723 E17.80979
G1 X138.046 Y47.89 E17.83147
G1 X138.672 Y48.078 E17.85321
G1 X139.839 Y48.468 E17.89413
G1 X140.049 Y48.54 E17.90152
G1 X144.136 Y50.002 E18.04589
G1 X144.756 Y50.233 E18.06789
G1 X145.381 Y50.489 E18.09036
G1 X146.495 Y50.988 E18.13095
G1 X146.693 Y51.079 E18.1382
G1 X150.667 Y52.958 E18.28441
G1 X151.207 Y53.222 E18.3044
G1 X151.801 Y53.537 E18.32676
G1 X152.879 Y54.153 E18.36806
G1 X153.071 Y54.265 E18.37545
G1 X156.911 Y56.569 E18.5244
G1 X157.342 Y56.835 E18.54124
G1 X157.918 Y57.216 E18.56421
G1 X158.946 Y57.947 E18.60617
G1 X159.115 Y58.07 E18.61312
G1 X162.672 Y60.708 E18.76041
G1 X163.102 Y61.036 E18.7784
G1 X163.626 Y61.463 E18.80088
G1 X164.58 Y62.292 E18.84291
G1 X164.745 Y62.438 E18.85024
G1 X167.91 Y65.306 E18.9923
G1 X168.441 Y65.801 E19.01645
G1 X168.905 Y66.262 E19.0382
G1 X169.744 Y67.149 E19.07881
G1 X169.898 Y67.315 E19.08634
G1 X172.795 Y70.512 E19.22984
G1 X173.267 Y71.049 E19.25362
G1 X173.67 Y71.538 E19.27469
G1 X174.443 Y72.535 E19.31665
G1 X174.58 Y72.715 E19.32417
G1 X177.162 Y76.196 E19.46833
G1 X177.555 Y76.742 E19.4907
G1 X177.912 Y77.274 E19.51201
G1 X178.532 Y78.26 E19.55075
G1 X178.65 Y78.453 E19.55827
G1 X181.013 Y82.396 E19.71116
G1 X181.248 Y82.802 E19.72677
G1 X181.558 Y83.379 E19.74855
G1 X182.198 Y84.665 E19.79633
G1 X184.117 Y88.724 E19.94566
G1 X184.345 Y89.225 E19.96397
G1 X184.599 Y89.832 E19.98585
G1 X185.027 Y90.952 E20.02573
G1 X185.105 Y91.165 E20.03328
G1 X186.633 Y95.439 E20.18424
G1 X186.798 Y95.924 E20.20128
G1 X186.989 Y96.549 E20.22302
G1 X187.357 Y97.903 E20.26968
G1 X188.42 Y102.141 E20.41501
G1 X188.576 Y102.805 E20.43769
G1 X188.705 Y103.442 E20.45931
G1 X188.914 Y104.67 E20.50074
G1 X188.95 Y104.895 E20.50832
G1 X189.601 Y109.297 E20.65632
G1 X189.672 Y109.823 E20.67398
G1 X189.742 Y110.509 E20.69691
G1 X189.827 Y111.737 E20.73785
G1 X189.839 Y111.946 E20.74482
G1 X190.058 Y116.399 E20.8931
G1 X190.077 Y116.958 E20.91171
G1 X190.079 Y117.619 E20.93369
G1 X190.044 Y118.852 E20.97472
G1 X190.035 Y119.071 E20.98201
G1 X189.817 Y123.5 E21.12949
G1 X189.78 Y124.082 E21.14889
G1 X189.716 Y124.748 E21.17114
G1 X189.537 Y126.141 E21.21786
G1 X188.878 Y130.584 E21.36725
G1 X188.799 Y131.079 E21.38392
G1 X188.662 Y131.783 E21.40777
G1 X188.385 Y132.988 E21.4489
G1 X187.277 Y137.416 E21.60071
G1 X187.11 Y138.046 E21.62239
G1 X186.922 Y138.672 E21.64413
G1 X186.532 Y139.839 E21.68506
G1 X186.46 Y140.049 E21.69244
G1 X184.949 Y144.27 E21.84156
G1 X184.77 Y144.75 E21.85859
G1 X184.511 Y145.38 E21.88125
G1 X183.921 Y146.693 E21.92913
G1 X182.042 Y150.667 E22.07533
G1 X181.778 Y151.207 E22.09532
G1 X181.463 Y151.801 E22.11769
G1 X180.847 Y152.879 E22.15898
G1 X180.735 Y153.071 E22.16638
G1 X178.431 Y156.911 E22.31532
G1 X178.165 Y157.342 E22.33217
G1 X177.784 Y157.918 E22.35514
G1 X177.053 Y158.946 E22.39709
G1 X176.93 Y159.115 E22.40404
G1 X174.292 Y162.672 E22.55133
G1 X173.964 Y163.102 E22.56932
G1 X173.537 Y163.626 E22.5918
G1 X172.708 Y164.58 E22.63384
G1 X172.562 Y164.745 E22.64117
G1 X169.694 Y167.91 E22.78323
G1 X169.199 Y168.441 E22.80737
G1 X168.738 Y168.905 E22.82913
G1 X167.851 Y169.744 E22.86973
G1 X167.685 Y169.898 E22.87727
G1 X164.488 Y172.795 E23.02076
G1 X163.951 Y173.267 E23.04454
G1 X163.462 Y173.67 E23.06562
G1 X162.465 Y174.443 E23.10758
G1 X162.285 Y174.58 E23.1151
G1 X158.804 Y177.162 E23.25925
G1 X158.258 Y177.555 E23.28163
G1 X157.726 Y177.912 E23.30293
G1 X156.74 Y178.532 E23.34167
G1 X156.547 Y178.65 E23.3492
G1 X152.604 Y181.013 E23.50209
G1 X152.198 Y181.248 E23.51769
G1 X151.621 Y181.558 E23.53948
G1 X150.335 Y182.198 E23.58725
G1 X146.276 Y184.117 E23.73658
G1 X145.775 Y184.345 E23.75489
G1 X145.168 Y184.599 E23.77678
G1 X144.048 Y185.027 E23.81666
G1 X143.835 Y185.105 E23.8242
G1 X139.561 Y186.633 E23.97517
G1 X139.076 Y186.798 E23.9922
G1 X138.451 Y186.989 E24.01394
G1 X137.097 Y187.357 E24.06061
G1 X132.859 Y188.42 E24.20593
G1 X132.195 Y188.576 E24.22862
G1 X131.558 Y188.705 E24.25023
G1 X130.33 Y188.914 E24.29167
G1 X130.105 Y188.95 E24.29924
G1 X125.838 Y189.582 E24.44271
G1 X125.17 Y189.672 E24.46513
G1 X124.49 Y189.742 E24.48787
G1 X123.264 Y189.827 E24.52874
G1 X123.054 Y189.839 E24.53574
G1 X118.6 Y190.058 E24.68406
G1 X118.04 Y190.077 E24.7027
G1 X117.38 Y190.079 E24.72465
G1 X116.148 Y190.044 E24.76564
G1 X115.929 Y190.035 E24.77293
G1 X111.5 Y189.817 E24.92042
G1 X110.918 Y189.78 E24.93981
G1 X110.252 Y189.716 E24.96207
